!!!COM: Beethoven, Ludwig van
!!!CDT: 1770///-1827///
!!!ODT: 1806///
!!!OTL: String Quartet No. 7 in F Major, Op. 59, No. 1
!!!OPS: Op. 59
!!!ONM: No. 1
!!!OMV: Mvmt. 1
!!!OMD: Allegro
!!!PDT: 1808///
!!!PPP: Vienna
!!!ODE: Dem Grafen Rasoumoffsky gewidmet
!!!ONB: Op. 59 are called the Rasumovsky Quartets
!!!MPD: 1806///
**kern	**dynam	**kern	**dynam	**kern	**dynam	**kern	**dynam
*Icello	*Icello	*Iviola	*Iviola	*Ivioln	*Ivioln	*Ivioln	*Ivioln
*staff4	*staff4	*staff3	*staff3	*staff2	*staff2	*staff1	*staff1
*clefF4	*clefF4	*clefC3	*clefC3	*clefG2	*clefG2	*clefG2	*clefG2
*k[b-]	*k[b-]	*k[b-]	*k[b-]	*k[b-]	*k[b-]	*k[b-]	*k[b-]
*F:	*F:	*F:	*F:	*F:	*F:	*F:	*F:
*met(C)	*met(C)	*met(C)	*met(C)	*met(C)	*met(C)	*met(C)	*met(C)
*M4/4	*M4/4	*M4/4	*M4/4	*M4/4	*M4/4	*M4/4	*M4/4
*MM160	*MM160	*MM160	*MM160	*MM160	*MM160	*MM160	*MM160
=1-	=1-	=1-	=1-	=1-	=1-	=1-	=1-
(4C/	mf	8A/L	p	8c/L	.	1r	.
.	.	8A/	.	8c/	p	.	.
4D\	.	8A/	.	8c/	.	.	.
.	.	8A/J	.	8c/J	.	.	.
4E\	.	8A/L	.	8c/L	.	.	.
.	.	8A/	.	8c/	.	.	.
4F\)	.	8A/	.	8c/	.	.	.
.	.	8A/J	.	8c/J	.	.	.
=2	=2	=2	=2	=2	=2	=2	=2
(2.C/	.	8A/L	.	8c/L	.	1r	.
.	.	8A/	.	8c/	.	.	.
.	.	8A/	.	8c/	.	.	.
.	.	8A/J	.	8c/J	.	.	.
.	.	8A/L	.	8c/L	.	.	.
.	.	8A/	.	8c/	.	.	.
8D/L	.	8A/	.	8c/	.	.	.
8C/J	.	8A/J	.	8c/J	.	.	.
=3	=3	=3	=3	=3	=3	=3	=3
8BB-/L	.	8A/L	.	8c/L	.	1r	.
8C/)	.	8A/	.	8c/	.	.	.
8AA'/	.	8A/	.	8c/	.	.	.
8GG'/J	.	8A/J	.	8c/J	.	.	.
(4FF/	.	8A/L	.	8c/L	.	.	.
.	.	8A/	.	8c/	.	.	.
4D\	.	8A/	.	8c/	.	.	.
.	.	8A/J	.	8c/J	.	.	.
=4	=4	=4	=4	=4	=4	=4	=4
1C)	.	8A/L	.	8c/L	.	1r	.
.	.	8A/	.	8c/	.	.	.
.	.	8A/	.	8c/	.	.	.
.	.	8A/J	.	8c/J	.	.	.
.	.	8A/L	.	8c/L	.	.	.
.	.	8A/	.	8c/	.	.	.
.	.	8A/	.	8c/	.	.	.
.	.	8A/J	.	8c/J	.	.	.
=5	=5	=5	=5	=5	=5	=5	=5
(4D\	.	8A/L	.	8c/L	.	1r	.
.	.	8A/	.	8c/	.	.	.
4E\	.	8A/	.	8c/	.	.	.
.	.	8A/J	.	8c/J	.	.	.
4F\	.	8A/L	.	8c/L	.	.	.
.	.	8A/	.	8c/	.	.	.
4G\)	.	8A/	.	8c/	.	.	.
.	.	8A/J	.	8c/J	.	.	.
=6	=6	=6	=6	=6	=6	=6	=6
(2.F\	.	8A/L	.	8c/L	.	1r	.
.	.	8A/	.	8c/	.	.	.
.	.	8A/	.	8c/	.	.	.
.	.	8A/J	.	8c/J	.	.	.
.	.	8A/L	.	8c/L	.	.	.
.	.	8A/	.	8c/	.	.	.
8E\L	.	8A/	.	8c/	.	.	.
8D\J)	.	8A/J	.	8c/J	.	.	.
=7	=7	=7	=7	=7	=7	=7	=7
(8C\L	.	8A/L	.	8c/L	.	1r	.
8D\)	.	8A/	.	8c/	.	.	.
8E'\	.	8A/	.	8c/	.	.	.
8F'\J	.	8A/J	.	8c/J	.	.	.
(4G'\	.	8B-/L	.	8c/L	.	.	.
.	.	8B-/	.	8c/	.	.	.
4A'\)	.	8B-/	.	8c/	.	.	.
.	.	8B-/J	.	8c/J	.	.	.
=8	=8	=8	=8	=8	=8	=8	=8
1G	.	8B-/L	p	8c/L	.	1r	.
.	.	8B-/	.	8c/	.	.	.
.	.	8B-/	.	8c/	.	.	.
.	.	8B-/J	.	8c/J	.	.	.
.	.	8B-/L	.	8c/L	.	.	.
.	.	8B-/	.	8c/	.	.	.
.	.	8B-/	.	8c/	.	.	.
.	.	8B-/J	.	8c/J	.	.	.
=9	=9	=9	=9	=9	=9	=9	=9
8G\L	p	8B-/L	.	8c/L	.	(4dd\	p
8G\	.	8B-/	.	8c/	.	.	.
8G\	.	8B-/	.	8c/	.	4ee\	.
8G\J	.	8B-/J	.	8c/J	.	.	.
8G\L	.	8B-/L	.	8c/L	.	4ff\	.
8G\	.	8B-/	.	8c/	.	.	.
8G\	.	8B-/	.	8c/	.	4gg\)	.
8G\J	.	8B-/J	.	8c/J	.	.	.
=10	=10	=10	=10	=10	=10	=10	=10
8G\L	.	8B-/L	.	8c/L	.	(2.ff\	.
8G\	.	8B-/	.	8c/	.	.	.
8G\	.	8B-/	.	8c/	.	.	.
8G\J	.	8B-/J	.	8c/J	.	.	.
8G\L	.	8B-/L	.	8c/L	.	.	.
8G\	.	8B-/	.	8c/	.	.	.
8G\	.	8B-/	.	8c/	.	8ee\L	.
8G\J	.	8B-/J	.	8c/J	.	8dd\J)	.
=11	=11	=11	=11	=11	=11	=11	=11
8G\L	.	8B-/L	.	8c/L	.	(8cc\L	.
8G\	.	8B-/	.	8c/	.	8dd\)	.
8G\	.	8B-/	.	8c/	.	8ee'\	.
8G\J	.	8B-/J	.	8c/J	.	8ff'\J	.
8G\L	.	8B-/L	.	8c/L	.	(4gg'\	.
8G\	.	8B-/	.	8c/	.	.	.
8G\	.	8B-/	.	8c/	.	4aa'\)	.
8G\J	.	8B-/J	.	8c/J	.	.	.
=12	=12	=12	=12	=12	=12	=12	=12
8G\L	.	8B-/L	.	8c/L 8e/	.	1gg	.
8G\	.	8B-/	.	8c/ 8e/	.	.	.
8G\	.	8B-/	.	8c/ 8e/	.	.	.
8G\J	.	8B-/J	.	8c/J 8e/	.	.	.
8G\L	.	8B-/L	.	8c/L 8e/	.	.	.
8G\	.	8B-/	.	8c/ 8e/	.	.	.
8G\	.	8B-/	.	8c/ 8e/	.	.	.
8G\J	.	8B-/J	.	8c/J 8e/	.	.	.
=13	=13	=13	=13	=13	=13	=13	=13
8G\L	.	8B-/L	.	8c/L 8e/	.	(4gg\	.
8G\	.	8B-/	.	8c/ 8e/	.	.	.
8G\	.	8B-/	.	8c/ 8e/	.	4aa\	.
8G\J	.	8B-/J	.	8c/J 8e/	.	.	.
8G\L	.	8B-/L	.	8c/L 8e/	.	4bb-\	.
8G\	.	8B-/	.	8c/ 8e/	.	.	.
8G\	.	8B-/	.	8c/ 8e/	.	4ccc\)	.
8G\J	.	8B-/J	.	8c/J 8e/	.	.	.
=14	=14	=14	=14	=14	=14	=14	=14
8G\L	.	8B-/L	.	8c/L 8e/	.	(2.bb-\	.
8G\	.	8B-/	.	8c/ 8e/	.	.	.
8G\	.	8B-/	.	8c/ 8e/	.	.	.
8G\J	.	8B-/J	.	8c/J 8e/	.	.	.
8G\L	.	8B-/L	.	8c/L 8e/	.	.	.
8G\	.	8B-/	.	8c/ 8e/	.	.	.
8G\	.	8B-/	.	8c/ 8e/	.	8aa\L	.
8G\J	.	8B-/J	.	8c/J 8e/	.	8gg\J)	.
=15	=15	=15	=15	=15	=15	=15	=15
8G\L	.	8B-/L	.	8c/L 8e/	.	(8ff\L	.
8G\	.	8B-/	.	8c/ 8e/	.	8gg\)	.
8G\	.	8B-/	.	8c/ 8e/	.	8aa'\	.
8G\J	.	8B-/J	.	8c/J 8e/	.	8bb-'\J	.
8G\L	.	8B-/L	.	8c/L 8e/	.	(4ccc'\	.
8G\	.	8B-/	.	8c/ 8e/	.	.	.
8G\	.	8B-/	.	8c/ 8e/	.	4ddd'\)	.
8G\J	.	8B-/J	.	8c/J 8e/	.	.	.
=16	=16	=16	=16	=16	=16	=16	=16
8G\L	.	8B-/L	.	8c/L 8e/	.	1ccc	.
8G\	.	8B-/	.	8c/ 8e/	.	.	.
8G\	.	8B-/	.	8c/ 8e/	.	.	.
8G\J	.	8B-/J	.	8c/J 8e/	.	.	.
8G\L	.	8B-/L	.	8c/L 8e/	.	.	.
8G\	.	8B-/	.	8c/ 8e/	.	.	.
8G\	.	8B-/	.	8c/ 8e/	.	.	.
8G\J	.	8B-/J	.	8c/J 8e/	.	.	.
=17	=17	=17	=17	=17	=17	=17	=17
8C\L 8G\	.	8B-/L	.	8e/L 8b-/	.	1ddd	.
8C\ 8G\	.	8B-/	.	8e/ 8b-/	.	.	.
8C\ 8G\	.	8B-/	.	8e/ 8b-/	.	.	.
8C\J 8G\	.	8B-/J	.	8e/J 8b-/	.	.	.
8C\L 8G\	.	8B-/L	.	8e/L 8b-/	.	.	.
8C\ 8G\	.	8B-/	.	8e/ 8b-/	.	.	.
8C\ 8G\	.	8B-/	.	8e/ 8b-/	.	.	.
8C\J 8G\	.	8B-/J	.	8e/J 8b-/	.	.	.
=18	=18	=18	=18	=18	=18	=18	=18
8CC/L 8C/	.	8c\L 8e\	.	8g/L 8b-/	f	1ee 1eee	.
8CC/ 8C/	f	8c\ 8e\	.	8g/ 8b-/	.	.	.
8CC/ 8C/	.	8c\ 8e\	.	8g/ 8b-/	.	.	.
8CC/J 8C/	.	8c\J 8e\	.	8g/J 8b-/	.	.	.
8CC/L 8C/	.	8c\L 8e\	.	8g/L 8b-/	.	.	.
8CC/ 8C/	.	8c\ 8e\	.	8g/ 8b-/	.	.	.
8CC/ 8C/	.	8c\ 8e\	.	8g/ 8b-/	.	.	.
8CC/J 8C/	.	8c\J 8e\	.	8g/J 8b-/	.	.	.
=19	=19	=19	=19	=19	=19	=19	=19
2.FF/	.	2.c\	.	2.f/ 2.a/	.	2.ff\ 2.fff\	f
(4AA/	ff	[4F/	ff	(4c/ 4f/	ff	(4f/	ff
=20	=20	=20	=20	=20	=20	=20	=20
8BB-'/)	.	8F'/]	.	8d'/) 8f'/	.	8dd'\)	.
8r	.	8r	.	8r	.	8r	.
8D'\	.	8F'/	.	8B-'/	.	8b-'\	.
8r	.	8r	.	8r	.	8r	.
2C/	.	2F/	.	(2c/	.	2a/	.
=21	=21	=21	=21	=21	=21	=21	=21
1r	.	8B-'/	.	8d'/)	.	8dd'\L	.
.	.	8r	.	8r	.	8r	.
.	.	8d'\	.	8f'/	.	8b-'\J	.
.	.	8r	.	8r	.	8r	.
.	.	(2c\	.	(2f/	.	(2a/	.
=22	=22	=22	=22	=22	=22	=22	=22
8BB-'/	p	8F'/)	.	8d'/)	.	8dd'\)	.
8r	.	8r	.	8r	.	8r	.
8D'\	.	8B-'/	.	8f'/	.	8b-'\	.
8r	.	8r	.	8r	.	8r	.
(2D\	.	(2Bn/	.	(2f/	.	(2a-/	.
=23	=23	=23	=23	=23	=23	=23	=23
2E\	.	2c\	.	2e/	.	2g/	.
2C/)	.	2E/)	.	2g/)	.	2ee\)	.
=24	=24	=24	=24	=24	=24	=24	=24
8C#/	.	8E/	.	8b-\	.	8gg\L	.
8r	.	8r	.	8r	.	8r	.
8E\	.	8c#\	.	8g/	.	8b-\J	.
8r	.	8r	.	8r	.	8r	.
(2F\	.	[2d\	.	[2f/	.	(2an/	.
=25	=25	=25	=25	=25	=25	=25	=25
2A-\	.	(2d\]	.	(2f/]	.	2bn\	.
2F\)	.	2Bn/)	.	2a-/)	.	2ff\)	.
=26	=26	=26	=26	=26	=26	=26	=26
8G\	.	8B-/	.	8e/	.	8bb-\	.
8r	.	8r	.	8r	.	8r	.
8B-\	.	8e\	.	8g/	.	8dd-\	.
8r	.	8r	.	8r	.	8r	.
(2An\	.	[2e-\	.	(2f#/	.	(2cc\	.
=27	=27	=27	=27	=27	=27	=27	=27
2c\	.	(2e-\]	.	2a/	.	2ff#\	.
2Bn\)	.	2d\)	.	2g/)	.	[2gg\)	.
=28	=28	=28	=28	=28	=28	=28	=28
2B-\	.	2d-\	.	(1g	.	(1gg]	.
[2G\	.	2B-/	.	.	.	.	.
=29	=29	=29	=29	=29	=29	=29	=29
1G]	.	1C 1B-	.	1e)	.	1cc)	.
=30	=30	=30	=30	=30	=30	=30	=30
[1FF	p	[1C [1A	.	(2.a/	p	(2.cc\	p
.	.	.	.	8b-/L	.	8dd\L	.
.	.	.	.	8a/J	.	8cc\J	.
=31	=31	=31	=31	=31	=31	=31	=31
1FF_	.	1C_ 1A_	.	8g/L	.	8b-/L	.
.	.	.	.	8a/	.	8cc/	.
.	.	.	.	8f/	.	8a/	.
.	.	.	.	8c/J	.	8g/J	.
.	.	.	.	8f/L	.	8a/L	.
.	.	.	.	8c/	.	8g/	.
.	.	.	.	8A/	.	8f/	.
.	.	.	.	8c/J	.	8g/J	.
=32	=32	=32	=32	=32	=32	=32	=32
1FF_	.	1C_ 1A]	.	8f/L	.	8a\L	.
.	.	.	.	8g/	.	8b-\	.
.	.	.	.	8a/	.	8cc\	.
.	.	.	.	8b-/J	.	8dd\J	.
.	.	.	.	8a/L	.	8cc\L	.
.	.	.	.	8b-/	.	8dd\	.
.	.	.	.	8g/	.	8ee\	.
.	.	.	.	8a/J	.	8ff\J	.
=33	=33	=33	=33	=33	=33	=33	=33
1FF]	.	1C] 1B-	.	8g/L	.	8ee\L	.
.	.	.	.	8b-/)	.	8gg\)	.
.	.	.	.	8g'/	.	8b-'\	.
.	.	.	.	8g'/J	.	8b-'\J	.
.	.	.	.	(8g/L	.	(8b-/L	.
.	.	.	.	8a/)	.	8cc/)	.
.	.	.	.	8e'/	.	8g'/	.
.	.	.	.	8e'/J	.	8g'/J	.
=34	=34	=34	=34	=34	=34	=34	=34
(2.A\	.	(2.c\	.	4f/	.	4a/	.
.	.	.	.	4r	.	4r	.
.	.	.	.	2r	.	2r	.
8B-\L	.	8d\L	.	.	.	.	.
8A\J	.	8c\J	.	.	.	.	.
=35	=35	=35	=35	=35	=35	=35	=35
8G\L	.	8B-/L	.	1r	.	1r	.
8A\	.	8c/	.	.	.	.	.
8F\	.	8A/	.	.	.	.	.
8C\J	.	8G/J	.	.	.	.	.
8F/L	.	8A/L	.	.	.	.	.
8C/	.	8G/	.	.	.	.	.
8AA/	.	8F/	.	.	.	.	.
8C/J)	.	8G/J	.	.	.	.	.
=36	=36	=36	=36	=36	=36	=36	=36
(8F\L	.	8A/L	.	1r	.	1r	.
8G\	.	8B-/	.	.	.	.	.
8A\	.	8c/	.	.	.	.	.
8B-\J	.	8d/J	.	.	.	.	.
8A\L	.	8c\L	.	.	.	.	.
8B-\	.	8d\	.	.	.	.	.
8G\	.	8e\	.	.	.	.	.
8A\J	.	8f\J	.	.	.	.	.
=37	=37	=37	=37	=37	=37	=37	=37
8G\L	.	8e\L	.	1r	.	1r	.
8B-\)	.	8g\)	.	.	.	.	.
8G'\	.	8B-'\	.	.	.	.	.
8G'\J	.	8B-'\J	.	.	.	.	.
(8G\L	.	(8B-/L	.	.	.	.	.
8A\)	.	8c/)	.	.	.	.	.
8E'\	.	8G'/	.	.	.	.	.
8E'\J	.	8G'/J	.	.	.	.	.
=38	=38	=38	=38	=38	=38	=38	=38
(4F\	.	(4A/	.	2r	.	1r	.
4G\	.	4B-/	.	.	.	.	.
4A\	.	4c\	.	4r	.	.	.
4B-\)	.	4d\)	.	[4ff\	.	.	.
=39	=39	=39	=39	=39	=39	=39	=39
1G	p	1Bn	p	(4ff\]	p	1r	.
.	.	.	.	4ee\	.	.	.
.	.	.	.	4dd\	.	.	.
.	.	.	.	4gg\)	.	.	.
=40	=40	=40	=40	=40	=40	=40	=40
(4A\	.	(4c\	.	2.ff\	.	2r	.
4Bn\	.	4d\	.	.	.	.	.
4c\	.	4e\	.	.	.	4r	.
4d\)	.	4f\)	.	[4ff\	.	[4fff\	.
=41	=41	=41	=41	=41	=41	=41	=41
1Bn	p	1d	p	(4ff\]	p	(4fff\]	p
.	.	.	.	4ee\	.	4eee\	.
.	.	.	.	4dd\	.	4ddd\	.
.	.	.	.	[4gg\)	.	[4ggg\)	.
=42	=42	=42	=42	=42	=42	=42	=42
(4c\	.	(4e\	.	1gg_	.	2.ggg\]	.
4d\	.	4f\	.	.	.	.	.
4e\	.	4g\	.	.	.	.	.
4f\)	.	4a\)	.	.	.	12fff\L	.
.	.	.	.	.	.	12eee\	.
.	.	.	.	.	.	12ddd\J	.
=43	=43	=43	=43	=43	=43	=43	=43
(4d\	.	(4f\	.	2.gg\]	.	12ccc\L	.
.	.	.	.	.	.	12bbn\	.
.	.	.	.	.	.	12aa\J	.
4e\	.	4g\	.	.	.	12gg\L	.
.	.	.	.	.	.	12ff\	.
.	.	.	.	.	.	12ee\J	.
4f\	.	4a\	.	.	.	12dd\L	.
.	.	.	.	.	.	12cc\	.
.	.	.	.	.	.	12bn\J	.
[4g\	.	4bn\)	.	4f/	.	12ff\L	.
.	.	.	.	.	.	12dd\	.
.	.	.	.	.	.	12b\J	.
=44	=44	=44	=44	=44	=44	=44	=44
4g\])	p	(4cc\	p	(4e/	p	(4cc\	p
4r	.	4f\	.	4a/	.	4dd\	.
4r	.	4g\	.	4bn\	.	4ee\	.
[4F\	.	4a\	.	4cc\	.	4ff\	.
=45	=45	=45	=45	=45	=45	=45	=45
(4F\]	.	4f\	.	4a/	.	4dd\	.
4E\	.	4g\	.	4bn\	.	4ee\	.
4D\	.	4a\	.	4cc\	.	4ff\	.
[4d\)	.	4bn\	.	4dd\	.	4gg\	.
=46	=46	=46	=46	=46	=46	=46	=46
2d\]	.	4cc\	.	4ee\	.	4aa\	.
.	.	4dd\	.	4ff\	.	4bbn\	.
12c\L	.	4ee\	.	4gg\)	.	4ccc\	.
12Bn\	.	.	.	.	.	.	.
12A\J	.	.	.	.	.	.	.
12G\L	.	4bn\	.	[4gg\	.	4ddd\	.
12F#\	.	.	.	.	.	.	.
12E\J	.	.	.	.	.	.	.
=47	=47	=47	=47	=47	=47	=47	=47
12D/L	.	2cc\)	.	4gg\]	.	2eee\	.
12C/	f	.	.	.	.	.	.
12BBn/J	.	.	.	.	.	.	.
12AA/L	.	.	.	2aa\	f	.	.
12GG/	.	.	.	.	.	.	.
12GG-/J	.	.	.	.	.	.	.
12EE/L	.	4c\	f	.	.	2fff#\)	f
12DD/	.	.	.	.	.	.	.
12DD-/J	.	.	.	.	.	.	.
12DDn/L	.	4cc\	.	4aa\	.	.	.
12D/	.	.	.	.	.	.	.
12D/J	.	.	.	.	.	.	.
=48	=48	=48	=48	=48	=48	=48	=48
2GG/	.	4G\ 4d\ 4bn\	.	4gg\	.	4ggg\	.
.	.	4r	ff	4r	ff	4r	ff
(12AA/L	ff	2r	.	2r	.	2r	.
12BBn/	.	.	.	.	.	.	.
12C/J	.	.	.	.	.	.	.
12D\L	.	.	.	.	.	.	.
12E\	.	.	.	.	.	.	.
12F#\J)	.	.	.	.	.	.	.
=49	=49	=49	=49	=49	=49	=49	=49
2G\	.	1r	.	1r	.	1r	.
(12A\L	.	.	.	.	.	.	.
12G\	.	.	.	.	.	.	.
12F#\J	.	.	.	.	.	.	.
12Bn\L	.	.	.	.	.	.	.
12A\	.	.	.	.	.	.	.
12G\J)	.	.	.	.	.	.	.
=50	=50	=50	=50	=50	=50	=50	=50
2c\	.	1r	.	1r	.	1r	.
(12Bn\L	.	.	.	.	.	.	.
12A\	.	.	.	.	.	.	.
12G\J	.	.	.	.	.	.	.
12F#\L	.	.	.	.	.	.	.
12E\	.	.	.	.	.	.	.
12D\J)	.	.	.	.	.	.	.
=51	=51	=51	=51	=51	=51	=51	=51
8C/	.	1r	.	1r	.	1r	.
8r	.	.	.	.	.	.	.
8BBn/	.	.	.	.	.	.	.
8r	.	.	.	.	.	.	.
8AA/	.	.	.	.	.	.	.
8r	.	.	.	.	.	.	.
8D\	.	.	.	.	.	.	.
8r	.	.	.	.	.	.	.
=52	=52	=52	=52	=52	=52	=52	=52
4GG/	.	1r	.	4r	.	1r	.
4r	.	.	.	8G/	.	.	.
.	.	.	.	8r	.	.	.
2r	.	.	.	8Bn/	.	.	.
.	.	.	.	8r	.	.	.
.	.	.	.	8d/	.	.	.
.	.	.	.	8r	.	.	.
=53	=53	=53	=53	=53	=53	=53	=53
1c	.	1e-	p	[1g	.	8a-/	.
.	.	.	.	.	.	8r	p
.	.	.	.	.	.	8cc\	.
.	.	.	.	.	.	8r	.
.	.	.	.	.	.	8ee-\	.
.	.	.	.	.	.	8r	.
.	.	.	.	.	.	8gg-\	.
.	.	.	.	.	.	8r	.
=54	=54	=54	=54	=54	=54	=54	=54
1Bn	p	1d	p	4g/]	p	1gg	.
.	.	.	.	(4g/	.	.	.
.	.	.	.	4f#/	.	.	.
.	.	.	.	[4g/)	.	.	.
=55	=55	=55	=55	=55	=55	=55	=55
1B-	.	1d-	.	1g_	.	8g/	p
.	.	.	.	.	.	8r	.
.	.	.	.	.	.	8b-\	.
.	.	.	.	.	.	8r	.
.	.	.	.	.	.	8dd-\	.
.	.	.	.	.	.	8r	.
.	.	.	.	.	.	8ee\	.
.	.	.	.	.	.	8r	.
=56	=56	=56	=56	=56	=56	=56	=56
1A	p	1c	p	4g/]	p	1ff	.
.	.	.	.	(4g/	.	.	.
.	.	.	.	4f#/	.	.	.
.	.	.	.	4g/)	.	.	.
=57	=57	=57	=57	=57	=57	=57	=57
1A-	.	1c 1f	.	[1g	.	8f/	p
.	.	.	.	.	.	8r	.
.	.	.	.	.	.	8a-/	.
.	.	.	.	.	.	8r	.
.	.	.	.	.	.	8bn\	.
.	.	.	.	.	.	8r	.
.	.	.	.	.	.	8dd\	.
.	.	.	.	.	.	8r	.
=58	=58	=58	=58	=58	=58	=58	=58
1G	p	2.c\ 2.e\	p	8g/]	p	8ee\	.
.	.	.	.	8r	.	8r	.
.	.	.	.	4r	.	(4g/	.
.	.	.	.	4r	.	4f#/	.
.	.	(4c\	.	4e/	.	4g/)	.
=59	=59	=59	=59	=59	=59	=59	=59
(2.GG/	.	2.Bn/)	.	2.d/	.	(4g/	.
.	.	.	.	.	.	4a/	.
.	.	.	.	.	.	4g/	.
8AA/L	.	4d\	.	[4G/	.	4f/)	.
8BBn/J)	.	.	.	.	.	.	.
=60	=60	=60	=60	=60	=60	=60	=60
[1C	p	(4c\	p	4G/]	.	2.e/	.
.	.	4A/	p	(2c/	.	.	.
.	.	4G/	.	.	.	.	.
.	.	4F/)	.	4Bn/)	.	(4d/	p
=61	=61	=61	=61	=61	=61	=61	=61
2C/_	.	(4.E/	.	[1c	.	4.c/	.
.	.	8D/	.	.	.	8d/	.
(8C/L]	.	[2C/)	.	.	.	4e/	.
8BBn/	.	.	.	.	.	.	.
8AA/	.	.	.	.	.	8f/L	.
8GG/J	.	.	.	.	.	8g/J)	.
=62	=62	=62	=62	=62	=62	=62	=62
4FF/	.	2C/]	.	2c/]	.	(4..a/	.
4EE/	.	.	.	.	.	.	.
.	.	.	.	.	.	16bn\)	.
4DD/)	.	2D/	.	2f/	.	2b\	.
4GG/	.	.	.	.	.	.	.
=63	=63	=63	=63	=63	=63	=63	=63
.	.	.	.	.	.	aq/LL	.
.	.	.	.	.	.	bq/JJ	.
(4CC/	.	(4E/	.	(4g/	.	(4cc\	.
4F\	.	4c\	.	4a/	.	4aa\	.
4G\	.	4Bn/	.	4g/)	.	4gg\	.
4Bn\)	.	4dd\	.	[4g/	.	4ff\	.
=64	=64	=64	=64	=64	=64	=64	=64
([1c	.	2.cc\	.	(4g/]	.	2.ee\	.
.	.	.	.	4a/	.	.	.
.	.	.	.	4g/	.	.	.
.	.	4bn\)	.	4f/	.	4dd\)	.
=65	=65	=65	=65	=65	=65	=65	=65
2.c\]	.	[2cc\	.	4.e/	.	(12cc\L	.
.	.	.	.	.	.	12dd\	.
.	.	.	.	.	.	12cc\J	.
.	.	.	.	.	.	12bn\L	.
.	.	.	.	.	.	12cc\	.
.	.	.	.	8d/	.	.	.
.	.	.	.	.	.	12dd\J	.
.	.	(8cc\L]	.	4c/	.	16ee\LL	.
.	.	.	.	.	.	16ff\	.
.	.	8bn\	.	.	.	16ee\	.
.	.	.	.	.	.	16dd\JJ	.
8d\L	.	8a\	.	[4cc\)	.	12ee\L	.
.	.	.	.	.	.	12ff\	.
8e\J)	.	8g\J)	.	.	.	.	.
.	.	.	.	.	.	12gg\J)	.
=66	=66	=66	=66	=66	=66	=66	=66
(4f\	.	(4f\	.	2cc\]	.	(4..aa\	.
4e\	.	4g\	.	.	.	.	.
.	.	.	.	.	.	16bbn\)	.
4d\	.	4f\	.	2ff\	.	2bb\	.
4g\)	.	4dd\)	.	.	.	.	.
=67	=67	=67	=67	=67	=67	=67	=67
.	.	.	.	.	.	aaq/LL	.
.	.	.	.	.	.	bbq/JJ	.
4c\	.	(4cc\	.	(4ee\	.	(4.ccc\	.
4r	.	4dd\	p	4ff\	p	.	.
.	.	.	.	.	.	16bbn\LL	p
.	.	.	.	.	.	16aa\JJ	.
4r	.	4ee\	.	4gg\	.	8gg'\)	.
.	.	.	.	.	.	8r	.
4r	.	4dd\)	.	4ff\)	.	4gg\	.
=68	=68	=68	=68	=68	=68	=68	=68
.	.	.	.	.	.	ff#q/LL	.
.	.	.	.	.	.	ggq/JJ	.
2r	.	(4cc\	.	(4ee\	.	(4.ccc\	.
.	.	4dd\	p	4ff\	p	.	.
.	.	.	.	.	.	16bbn\LL	p
.	.	.	.	.	.	16aa\JJ	.
4r	.	4ee\	.	4gg\)	.	8gg'\)	.
.	.	.	.	.	.	8r	.
(4d\	.	4f\)	.	4gg\	.	4bb\	.
=69	=69	=69	=69	=69	=69	=69	=69
.	.	.	.	ff#q/LL	.	aaq/LL	.
.	.	.	.	ggq/JJ	.	bbq/JJ	.
4c\	.	(4e\	.	(4.ccc\	.	(4.eee\	.
4d\	p	4f\	p	.	.	.	.
.	.	.	.	16bb-\LL	p	16ddd\LL	p
.	.	.	.	16aa\JJ	.	16ccc\JJ	.
4e\	.	4g\	.	8gg'\)	.	8bbn'\)	.
.	.	.	.	8r	.	8r	.
4d\)	.	4f\)	.	4gg\	.	4bb\	.
=70	=70	=70	=70	=70	=70	=70	=70
.	.	.	.	ff#q/LL	.	aaq/LL	.
.	.	.	.	ggq/JJ	.	bbq/JJ	.
(4c\	.	(4e\	.	(4.ccc\	.	(4.eee\	.
4d\	p	4f\	p	.	.	.	.
.	.	.	.	16bb-\LL	p	16ddd\LL	p
.	.	.	.	16aa\JJ	.	16ccc\JJ	.
4e\	.	4g\	.	8gg'\)	.	8bbn'\)	.
.	.	.	.	8r	.	8r	.
4d\)	.	4f\)	.	4gg\	.	4bb\	.
=71	=71	=71	=71	=71	=71	=71	=71
.	.	.	.	ff#q/LL	.	aaq/LL	.
.	.	.	.	ggq/JJ	.	bbq/JJ	.
(2c\	.	(2e\	.	4eee\	.	[1ggg	.
.	.	.	.	8ddd'\L	.	.	.
.	.	.	.	8ccc'\J	.	.	.
2d\	.	2f\	.	(8ccc\L	.	.	.
.	.	.	.	8bbn\)	.	.	.
.	.	.	.	8bb'\	.	.	.
.	.	.	.	8ddd'\J	.	.	.
=72	=72	=72	=72	=72	=72	=72	=72
2e\	.	2g\	.	(8ddd\L	.	1ggg_	.
.	.	.	.	8ccc\)	.	.	.
.	.	.	.	8bbn'\	.	.	.
.	.	.	.	8aa'\J	.	.	.
[2f\)	.	2a\	.	(8aa\L	.	.	.
.	.	.	.	8gg\)	.	.	.
.	.	.	.	8ff'\	.	.	.
.	.	.	.	8ee'\J	.	.	.
=73	=73	=73	=73	=73	=73	=73	=73
4f\]	.	4bn\)	.	4dd\	.	4ggg\]	.
4r	.	4r	.	4r	.	(12ddd\L	.
.	.	.	.	.	.	12ccc\	.
.	.	.	.	.	.	12bbn\J	.
2r	.	2r	.	2r	.	12aa\L	.
.	.	.	.	.	.	12bb\	.
.	.	.	.	.	.	12gg\J	.
.	.	.	.	.	.	4ggg\)	.
=74	=74	=74	=74	=74	=74	=74	=74
4e\	.	4cc\	.	4ee\	.	4r	.
4r	.	4r	.	4r	.	(12gg\L	.
.	.	.	.	.	.	12ff\	.
.	.	.	.	.	.	12ee\J	.
2r	.	2r	.	2r	.	12dd\L	.
.	.	.	.	.	.	12ee\	.
.	.	.	.	.	.	12cc\J	.
.	.	.	.	.	.	4ccc\)	.
=75	=75	=75	=75	=75	=75	=75	=75
4F\	.	4Bn\ 4d\	.	4g/	.	4r	.
4r	.	4r	.	4r	.	(12dd\L	.
.	.	.	.	.	.	12cc\	.
.	.	.	.	.	.	12bn\J	.
2r	.	2r	.	2r	.	12a/L	.
.	.	.	.	.	.	12b/	.
.	.	.	.	.	.	12g/J	.
.	.	.	.	.	.	4gg\)	.
=76	=76	=76	=76	=76	=76	=76	=76
4E\	.	4c\ 4e\	.	4g/	.	4r	.
4r	.	4r	.	4r	.	(12g/L	.
.	.	.	.	.	.	12f/	.
.	.	.	.	.	.	12e/J	.
2r	.	4r	.	2r	.	12d/L	.
.	.	.	.	.	.	12e/	.
.	.	.	.	.	.	12c/J	.
.	.	(12c/L	.	.	.	[4cc\)	.
.	.	12Bn/	.	.	.	.	.
.	.	12A/J	.	.	.	.	.
=77	=77	=77	=77	=77	=77	=77	=77
[1AA [1G-	.	12G/L	.	4r	.	4cc\]	.
.	.	12A/	.	.	.	.	.
.	.	12F#/J)	.	.	.	.	.
.	.	2D/	.	(12cc\L	.	4r	.
.	.	.	.	12bn\	.	.	.
.	.	.	.	12a\J	.	.	.
.	.	.	.	12g/L	.	12cc\L	.
.	.	.	.	12a/	.	12ff#\	.
.	.	.	.	12f#/J	.	12aa\J	.
.	.	(12c/L	.	4d/)	.	4ccc\	.
.	.	12Bn/	.	.	.	.	.
.	.	12A/J	.	.	.	.	.
=78	=78	=78	=78	=78	=78	=78	=78
1AA_ 1G-_	.	12G/L	.	4r	.	2r	.
.	.	12A/	.	.	.	.	.
.	.	12F#/J)	.	.	.	.	.
.	.	2D/	.	(12cc\L	.	.	.
.	.	.	.	12bn\	.	.	.
.	.	.	.	12a\J	.	.	.
.	.	.	.	12g/L	.	12cc\L	.
.	.	.	.	12a/	.	12ff#\	.
.	.	.	.	12f#/J	.	12aa\J	.
.	.	(12c/L	.	4d/)	.	4ccc\	.
.	.	12Bn/	.	.	.	.	.
.	.	12A/J	.	.	.	.	.
=79	=79	=79	=79	=79	=79	=79	=79
1AA_ 1G-_	.	12G/L	.	2r	.	1r	.
.	.	12A/	.	.	.	.	.
.	.	12F#/J)	.	.	.	.	.
.	.	12D'/L	.	.	.	.	.
.	.	12F#'/	.	.	.	.	.
.	.	12A'/J	.	.	.	.	.
.	.	12c\L	.	4r	.	.	.
.	.	12d\	.	.	.	.	.
.	.	12f#\J	.	.	.	.	.
.	.	4r	.	12a'\L	.	.	.
.	.	.	.	12cc'\	.	.	.
.	.	.	.	12dd'\J	.	.	.
=80	=80	=80	=80	=80	=80	=80	=80
1AA] 1G-]	.	1r	.	12ff#\L	.	1r	.
.	.	.	.	12aa\	.	.	.
.	.	.	.	12ccc\J	.	.	.
.	.	.	.	12aa\L	.	.	.
.	.	.	.	12ff#\	.	.	.
.	.	.	.	12dd\J	.	.	.
.	.	.	.	12cc/L	.	.	.
.	.	.	.	12a/	.	.	.
.	.	.	.	12f#/J	.	.	.
.	.	.	.	12d/L	.	.	.
.	.	.	.	12e/	.	.	.
.	.	.	.	12c/J	.	.	.
=81	=81	=81	=81	=81	=81	=81	=81
[1GGn [1Fn	.	1r	.	4Bn/	.	(12d/L	.
.	.	.	.	.	.	12c/	.
.	.	.	.	.	.	12Bn/J	.
.	.	.	.	4r	.	12A/L	.
.	.	.	.	.	.	12B/	.
.	.	.	.	.	.	12G/J)	.
.	.	.	.	2r	.	12B'/L	.
.	.	.	.	.	.	12d'/	.
.	.	.	.	.	.	12g'/J	.
.	.	.	.	.	.	12bn'\L	.
.	.	.	.	.	.	12dd'\	.
.	.	.	.	.	.	12gg'\J	.
=82	=82	=82	=82	=82	=82	=82	=82
1GG] 1F]	.	1r	.	1r	.	12bbn\L	.
.	.	.	.	.	.	12ddd\	.
.	.	.	.	.	.	12fff\J	.
.	.	.	.	.	.	12ddd\L	.
.	.	.	.	.	.	12bb\	.
.	.	.	.	.	.	12gg\J	.
.	.	.	.	.	.	12ff\L	.
.	.	.	.	.	.	12dd\	.
.	.	.	.	.	.	12bn\J	.
.	.	.	.	.	.	12g/L	.
.	.	.	.	.	.	12a/	.
.	.	.	.	.	.	12f/J	.
=83	=83	=83	=83	=83	=83	=83	=83
(12GG/L	.	(12G/L	.	2r	.	4e/	.
12FF/	.	12F/	.	.	.	.	.
12EE/J	.	12E/J	.	.	.	.	.
12DD/L	.	12D/L	.	.	.	4r	.
12EE/	.	12E/	.	.	.	.	.
12CC/J)	.	12C/J)	.	.	.	.	.
12EE'/L	.	12E'/L	.	4r	.	4r	.
12GG'/	.	12G'/	.	.	.	.	.
12C'/J	.	12c'/J	.	.	.	.	.
12E'\L	.	12e'\L	.	(12g/L	.	(12gg\L	.
12G'\	.	12g'\	.	12f/	.	12ff\	.
12c'\J	.	12cc'\J	.	12e/J	.	12ee\J	.
=84	=84	=84	=84	=84	=84	=84	=84
12C'\L	.	12c'\L	.	12d/L	.	12dd\L	.
12E'\	.	12e'\	.	12e/	.	12ee\	.
12G'\J	.	12g'\J	.	12c/J)	.	12cc\J)	.
12E/L	.	12e/L	.	12e'/L	.	12ee'\L	.
12C/	.	12c/	.	12g'/	.	12gg'\	.
12GG/J	.	12G/J	.	12cc'/J	.	12ccc'\J	.
12EE/L	.	12E/L	.	12ee\L	.	12eee\L	.
12CC/	.	12e/	.	12gg\	.	12ggg\	.
12C/J	.	12g/J	.	12ccc\J	.	12ggg\J	.
12C/L	.	12cc\L	.	12eee\L	.	12ggg\L	.
12C/	.	12cc\	.	12eee\	.	12ggg\	.
12C/J	.	12cc\J	.	12eee\J	.	12ggg\J	.
=85	=85	=85	=85	=85	=85	=85	=85
2r	.	2r	.	2eee\	p	2ggg\	p
2A\	p	2c#\	.	2r	.	2r	.
=86	=86	=86	=86	=86	=86	=86	=86
2r	.	1r	.	2Bn/ 2d/	.	2G/ 2f/	.
2GG/	.	.	.	2r	.	2r	.
=87	=87	=87	=87	=87	=87	=87	=87
2r	.	2r	.	2eee\	.	2ggg\	.
2A\	.	2d-\	.	2r	.	2r	.
=88	=88	=88	=88	=88	=88	=88	=88
2r	.	1r	.	2Bn/ 2d/	.	2G/ 2f/	.
2GG/	.	.	.	2r	.	2r	.
=89	=89	=89	=89	=89	=89	=89	=89
2r	f	2c#\	.	2eee\	.	2ggg\	f
2A\	.	2g\	.	2e/ 2a/	.	2e/ 2cc#/	.
=90	=90	=90	=90	=90	=90	=90	=90
2D\	f	2f\	.	2d/ 2dd/	.	2ff\	.
2AA-/	.	2d\ 2bn\	.	2f/ 2dd/	.	2ff\ 2fff\	.
=91	=91	=91	=91	=91	=91	=91	=91
[1GG	p	(2.Bn/	p	(2.d/	p	(2.g/	p
.	.	4c\	.	4e/	.	4a/	.
=92	=92	=92	=92	=92	=92	=92	=92
1GG]	.	2.d\	.	1f)	.	4bn\	.
.	.	.	.	.	.	4cc\	.
.	.	.	.	.	.	4dd\	.
.	.	4Bn/)	.	.	.	4ee\)	.
=93	=93	=93	=93	=93	=93	=93	=93
[1CC [1GG	.	(4c\	.	(4e/	.	(2.cc\	.
.	.	4d\	.	4f/	.	.	.
.	.	4e\	.	4g/	.	.	.
.	.	4f\)	.	4a/)	.	8dd\L	.
.	.	.	.	.	.	8cc\J)	.
=94	=94	=94	=94	=94	=94	=94	=94
1CC_ 1GG_	.	(2.d\	.	(2.f/	.	(8bn\L	.
.	.	.	.	.	.	8cc\)	.
.	.	.	.	.	.	8b'\	.
.	.	.	.	.	.	8cc'\J	.
.	.	.	.	.	.	(8dd\L	.
.	.	.	.	.	.	8ee\)	.
.	.	4Bn/)	.	4f/)	.	8dd'\	.
.	.	.	.	.	.	8ee'\J	.
=95	=95	=95	=95	=95	=95	=95	=95
1CC_ 1GG_	.	(8c\L	.	(8e/L	.	(2.cc\	.
.	.	8d\)	.	8f/)	.	.	.
.	.	8c\	.	8e/	.	.	.
.	.	8d\J	.	8f/J	.	.	.
.	.	(8e\L	.	(8g/L	.	.	.
.	.	8f\)	.	8a/)	.	.	.
.	.	8e\	.	8g/	.	8dd\L	.
.	.	8f\J	.	8a/J	.	8cc\J)	.
=96	=96	=96	=96	=96	=96	=96	=96
1CC_ 1GG_	.	1d	.	1f	.	(8bn\L	.
.	.	.	.	.	.	8cc\)	.
.	.	.	.	.	.	8dd'\	.
.	.	.	.	.	.	8ee'\J	.
.	.	.	.	.	.	(8ff\L	.
.	.	.	.	.	.	8aa\)	.
.	.	.	.	.	.	8gg'\	.
.	.	.	.	.	.	8b'\J	.
=97	=97	=97	=97	=97	=97	=97	=97
(8CC/L] 8GG/]	.	[1C [1c	.	4e/	.	(1cc	.
8AA/)	p	.	.	.	.	.	.
8GG'/	.	.	.	4r	p	.	.
8AA'/J	.	.	.	.	.	.	.
(8BBn/L	.	.	.	2r	.	.	.
8C/)	.	.	.	.	.	.	.
8BB'/	.	.	.	.	.	.	.
8C'/J	.	.	.	.	.	.	.
=98	=98	=98	=98	=98	=98	=98	=98
(1BB-	.	1C_ 1c_	p	2r	.	8dd\L	p
.	.	.	.	.	.	8ee\)	.
.	.	.	.	.	.	8dd'\	.
.	.	.	.	.	.	8ee'\J	.
.	.	.	.	8d/L	.	(8ff\L	.
.	.	.	.	8e/	.	8gg\)	.
.	.	.	.	8d'/	.	8ff'\	.
.	.	.	.	8e'/J	.	8gg'\J	.
=99	=99	=99	=99	=99	=99	=99	=99
1AA	.	1C_ 1c_	.	8f'/L	.	4ff\	.
.	.	.	.	8e/	.	.	.
.	.	.	.	8f/	.	4r	.
.	.	.	.	8e/J	.	.	.
.	.	.	.	4f/	.	8r	.
.	.	.	.	.	.	8gg\L	.
.	.	.	.	4r	.	8ff\	.
.	.	.	.	.	.	8gg\J	.
=100	=100	=100	=100	=100	=100	=100	=100
1BB-	.	1C_ 1c_	.	8r	.	8ff\	.
.	.	.	.	8d/L	.	8r	.
.	.	.	.	8c/	.	4r	.
.	.	.	.	8d/J	.	.	.
.	.	.	.	4c/	.	8r	.
.	.	.	.	.	.	8ee\L	.
.	.	.	.	4r	.	8ff\	.
.	.	.	.	.	.	8ee\J	.
=101	=101	=101	=101	=101	=101	=101	=101
2.AA/)	.	1C_ 1c_	.	8r	.	8ff\	.
.	.	.	.	8e/L	.	8r	.
.	.	.	.	8f/	.	4r	.
.	.	.	.	8e/J	.	.	.
.	.	.	.	4f/	.	8r	.
.	.	.	.	.	.	8gg\L	.
&((4BB-/&)	.	.	.	4r	.	8ff\	.
.	.	.	.	.	.	8gg\J	.
=102	=102	=102	=102	=102	=102	=102	=102
[2AA/)	.	2C/_ 2c/_	.	8r	.	8ff\	.
.	.	.	.	8d/L	.	8r	.
.	.	.	.	8c/	.	4r	.
.	.	.	.	8d/J	.	.	.
(8AA/L]	.	8C/L] 8c/]	.	8c/L	.	2r	.
8BB-/)	.	8G/	.	8c/	.	.	.
8AA'/	.	8A/	.	8c/	.	.	.
8BB-'/J	.	8A/J	.	8c/J	.	.	.
=103	=103	=103	=103	=103	=103	=103	=103
(4C/	.	8A/L	.	8c/L	.	1r	.
.	.	8A/	p	8c/	.	.	.
4D\	.	8A/	.	8c/	.	.	.
.	.	8A/J	.	8c/J	.	.	.
4E\	f	8A/L	.	8c/L	.	.	.
.	.	8A/	.	8c/	.	.	.
4F\)	.	8A/	.	8c/	.	.	.
.	.	8A/J	.	8c/J	.	.	.
=104	=104	=104	=104	=104	=104	=104	=104
(2.C/	.	8A/L	.	8c/L	.	1r	.
.	.	8A/	.	8c/	.	.	.
.	.	8A/	.	8c/	.	.	.
.	.	8A/J	.	8c/J	.	.	.
.	.	8A/L	.	8c/L	.	.	.
.	.	8A/	.	8c/	.	.	.
8D/L	.	8A/	.	8c/	.	.	.
8C/J	.	8A/J	.	8c/J	.	.	.
=105	=105	=105	=105	=105	=105	=105	=105
8BB-/L	.	8A/L	.	8c/L	.	1r	.
8C/)	.	8A/	.	8c/	.	.	.
8AA'/	.	8A/	.	8c/	.	.	.
8GG'/J	.	8A/J	.	8c/J	.	.	.
(4FF/	.	8A/L	.	8c/L	.	.	.
.	.	8A/	.	8c/	.	.	.
(4D\)	.	8A/	.	8c/	.	.	.
.	.	8A/J	.	8c/J	.	.	.
=106	=106	=106	=106	=106	=106	=106	=106
1C)	.	8A/L	.	8c/L	.	1r	.
.	.	8A/	.	8c/	.	.	.
.	.	8A/	.	8c/	.	.	.
.	.	8A/J	.	8c/J	.	.	.
.	.	8A/L	.	8c/L	.	.	.
.	.	8A/	.	8c/	.	.	.
.	.	8A/	.	8c/	.	.	.
.	.	8A/J	.	8c/J	.	.	.
=107	=107	=107	=107	=107	=107	=107	=107
(8C/L	.	8A/L	.	8c/L	.	1r	.
8D/)	.	8A/	.	8c/	.	.	.
8C'/	.	8A/	.	8c/	.	.	.
8D'/J	.	8A/J	.	8c/J	.	.	.
(8E\L	.	8A/L	.	8c/L	.	.	.
8F\)	.	8A/	.	8c/	.	.	.
8E'\	.	8A/	.	8c/	.	.	.
8F'\J	.	8A/J	.	8c/J	.	.	.
=108	=108	=108	=108	=108	=108	=108	=108
[1G-	.	1r	f	(8Bn/L	.	1r	.
.	.	.	.	8c/)	.	.	.
.	.	.	.	8B'/	.	.	.
.	.	.	.	8c'/J	.	.	.
.	.	.	.	(8d/L	.	.	.
.	.	.	.	8e-/)	.	.	.
.	.	.	.	8d'/	.	.	.
.	.	.	.	8e-'/J	.	.	.
=109	=109	=109	=109	=109	=109	=109	=109
1G-_	.	(8Bn/L	.	(8bn\L	.	1r	.
.	.	8c/)	.	8cc\)	.	.	.
.	.	8B'/	.	8b'\	.	.	.
.	.	8c'/J	.	8cc'\J	.	.	.
.	.	(8d\L	.	(8dd\L	.	.	.
.	.	8e-\)	.	8ee-\)	.	.	.
.	.	8d'\	.	8dd'\	.	.	.
.	.	8e-'\J	.	8ee-'\J	.	.	.
=110	=110	=110	=110	=110	=110	=110	=110
(1G-]	.	[1e-	.	[1ee-	.	(8bbn\L	.
.	.	.	.	.	.	8ccc\)	.
.	.	.	.	.	.	8bb'\	.
.	.	.	.	.	.	8ccc'\J	.
.	.	.	.	.	.	(8ddd\L	.
.	.	.	.	.	.	8eee-\)	.
.	.	.	.	.	.	8ddd'\	.
.	.	.	.	.	.	8eee-'\J	.
=111	=111	=111	=111	=111	=111	=111	=111
1F)	.	1e-]	.	1ee-]	.	(4fff\	.
.	.	.	.	.	.	4ggg\	.
.	.	.	.	.	.	4aaa\	.
.	.	.	.	.	.	4bbb-\)	.
=112	=112	=112	=112	=112	=112	=112	=112
4BB-/	.	4d\	.	8dd/L	.	2.fff\	.
.	.	.	.	8B-/ 8d/	.	.	.
4r	.	4r	.	8B-/ 8d/	.	.	.
.	.	.	.	8B-/J 8d/	.	.	.
2r	.	2r	.	8B-/L 8d/	.	.	.
.	.	.	.	8B-/ 8d/	.	.	.
.	.	.	.	8B-/ 8d/	.	(8ggg\L	.
.	.	.	.	8B-/J 8d/	.	8fff\J	.
=113	=113	=113	=113	=113	=113	=113	=113
1r	.	1r	.	8B-/L 8d/	.	8eee-\L	.
.	.	.	.	8B-/ 8d/	.	8fff\)	.
.	.	.	.	8B-/ 8d/	.	8ddd'\	.
.	.	.	.	8B-/J 8d/	.	8ccc'\J	.
.	.	.	.	8B-/L 8d/	.	(4bb-\	.
.	.	.	.	8B-/ 8d/	.	.	.
.	.	.	.	8B-/ 8d/	.	4ggg\	.
.	.	.	.	8B-/J 8d/	.	.	.
=114	=114	=114	=114	=114	=114	=114	=114
12BB-\L	.	1r	.	8B-/L 8d/	.	[1fff)	.
12D\	.	.	.	.	.	.	.
.	.	.	.	8B-/ 8d/	.	.	.
12F\J	.	.	.	.	.	.	.
12B-\L	.	.	.	8B-/ 8d/	.	.	.
12d\	.	.	.	.	.	.	.
.	.	.	.	8B-/J 8d/	.	.	.
12B-\J	.	.	.	.	.	.	.
12F\L	.	.	.	8B-/L 8d/	.	.	.
12B-\	.	.	.	.	.	.	.
.	.	.	.	8B-/ 8d/	.	.	.
12F\J	.	.	.	.	.	.	.
12D\L	.	.	.	8B-/ 8d/	.	.	.
12F\	.	.	.	.	.	.	.
.	.	.	.	8B-/J 8d/	.	.	.
12D\J	.	.	.	.	.	.	.
=115	=115	=115	=115	=115	=115	=115	=115
4BB-/	.	(4b-\	.	8B-/L 8d/	.	12fff\L]	.
.	.	.	.	.	.	12ddd\	.
.	.	.	.	8B-/ 8d/	.	.	.
.	.	.	.	.	.	12bb-\J	.
4r	.	4cc\	.	8B-/ 8d/	.	12ff\L	.
.	.	.	.	.	.	12dd\	.
.	.	.	.	8B-/J 8d/	.	.	.
.	.	.	.	.	.	12b-\J	.
2r	.	4dd\	.	8B-/L 8d/	.	12f/L	.
.	.	.	.	.	.	12d/	.
.	.	.	.	8B-/ 8d/	.	.	.
.	.	.	.	.	.	12B-/J	.
.	.	4ee-\)	.	8c/ 8e-/	.	12A/L	.
.	.	.	.	.	.	12c/	.
.	.	.	.	8c/J 8e-/	.	.	.
.	.	.	.	.	.	12f#/J	.
=116	=116	=116	=116	=116	=116	=116	=116
1r	.	(2.cc\	.	8c/L 8e-/	.	8A/L 8f#/	.
.	.	.	.	8c/ 8e-/	.	8A/ 8f#/	.
.	.	.	.	8c/ 8e-/	.	8A/ 8f#/	.
.	.	.	.	8c/J 8e-/	.	8A/J 8f#/	.
.	.	.	.	8c/L 8e-/	.	8A/L 8f#/	.
.	.	.	.	8c/ 8e-/	.	8A/ 8f#/	.
.	.	8dd\L	.	8c/ 8e-/	.	8A/ 8f#/	.
.	.	8cc\J)	.	8c/J 8e-/	.	8A/J 8f#/	.
=117	=117	=117	=117	=117	=117	=117	=117
1r	.	(8b-\L	.	8c/L 8e-/	.	8A/L 8f#/	.
.	.	8cc\)	.	8c/ 8e-/	.	8A/ 8f#/	.
.	.	8a'\	.	8c/ 8e-/	.	8A/ 8f#/	.
.	.	8g'\J	.	8c/J 8e-/	.	8A/J 8f#/	.
.	.	(4f#\	.	8c/L 8e-/	.	8A/L 8f#/	.
.	.	.	.	8c/ 8e-/	.	8A/ 8f#/	.
.	.	4ee-\	.	8c/ 8e-/	.	8A/ 8f#/	.
.	.	.	.	8c/J 8e-/	.	8A/J 8f#/	.
=118	=118	=118	=118	=118	=118	=118	=118
12AA/L	.	[1dd)	.	8c/L 8d/	.	8A/L 8f#/	.
12C/	.	.	.	.	.	.	.
.	.	.	.	8c/ 8d/	.	8A/ 8f#/	.
12F#/J	.	.	.	.	.	.	.
12A\L	.	.	.	8c/ 8d/	.	8A/ 8f#/	.
12c\	.	.	.	.	.	.	.
.	.	.	.	8c/J 8d/	.	8A/J 8f#/	.
12A\J	.	.	.	.	.	.	.
12F#\L	.	.	.	8c/L 8d/	.	8A/L 8f#/	.
12A\	.	.	.	.	.	.	.
.	.	.	.	8c/ 8d/	.	8A/ 8f#/	.
12F#\J	.	.	.	.	.	.	.
12C\L	.	.	.	8c/ 8d/	.	8A/ 8f#/	.
12F#\	.	.	.	.	.	.	.
.	.	.	.	8c/J 8d/	.	8A/J 8f#/	.
12C\J	.	.	.	.	.	.	.
=119	=119	=119	=119	=119	=119	=119	=119
4AA/	.	12dd\L]	.	(4dd\	.	8A/L 8f#/	.
.	.	12cc\	.	.	.	.	.
.	.	.	.	.	.	8A/ 8f#/	.
.	.	12a\J	.	.	.	.	.
4r	.	12c/L	.	4ee\	.	8A/ 8f#/	.
.	.	12A/	.	.	.	.	.
.	.	.	.	.	.	8A/J 8f#/	.
.	.	12d/J	.	.	.	.	.
2r	.	12c/L	.	4ff#\	.	8A/L 8f#/	.
.	.	12A/	.	.	.	.	.
.	.	.	.	.	.	8A/ 8f#/	.
.	.	12d/J	.	.	.	.	.
.	.	12B-/L	.	4gg\)	.	8A/ 8g/	.
.	.	12G/	.	.	.	.	.
.	.	.	.	.	.	8A/J 8g/	.
.	.	12d/J	.	.	.	.	.
=120	=120	=120	=120	=120	=120	=120	=120
12GG/L	.	8G/	.	(2.dd\	.	8G/L 8g/	.
12BB-/	.	.	.	.	.	.	.
.	.	8B-\L 8d\	.	.	.	8G/ 8g/	.
12D/J	.	.	.	.	.	.	.
12G\L	.	8B-\ 8d\	.	.	.	8G/ 8g/	.
12B-\	.	.	.	.	.	.	.
.	.	8B-\J 8d\	.	.	.	8G/J 8g/	.
12G\J	.	.	.	.	.	.	.
12D\L	.	8B-\L 8d\	.	.	.	8G/L 8g/	.
12G\	.	.	.	.	.	.	.
.	.	8B-\ 8d\	.	.	.	8G/ 8g/	.
12D\J	.	.	.	.	.	.	.
12BB-/L	.	8B-\ 8d\	.	8ee-\L	.	8G/ 8g/	.
12D/	.	.	.	.	.	.	.
.	.	8B-\J 8d\	.	8dd\J)	.	8G/J 8g/	.
12BB-/J	.	.	.	.	.	.	.
=121	=121	=121	=121	=121	=121	=121	=121
4GG/	.	8B-\L 8d\	.	(8cc\L	.	8G/L 8g/	.
.	.	8B-\ 8d\	.	8dd\)	.	8G/ 8g/	.
4r	.	8B-\ 8d\	.	8b-'\	.	8G/ 8g/	.
.	.	8B-\J 8d\	.	8a'\J	.	8G/J 8g/	.
2r	.	8B-\L 8d\	.	(4g/	.	(4G/	.
.	.	8B-\ 8d\	.	.	.	.	.
.	.	8B-\ 8d\	.	4ff\)	.	4A/	.
.	.	8B-\J 8d\	.	.	.	.	.
=122	=122	=122	=122	=122	=122	=122	=122
(4G\	.	2r	.	[1een	.	4B-/	.
4A\	.	.	.	.	.	4c/	.
4B-\	.	(4g\	.	.	.	4B-/)	.
4c\)	.	4a\	.	.	.	4r	.
=123	=123	=123	=123	=123	=123	=123	=123
2.B-\	.	4b-\	.	12ee\L]	.	(4gg\	.
.	.	.	.	12b-\	.	.	.
.	.	.	.	12g\J	.	.	.
.	.	4cc\	.	12e/L	.	4aa\	.
.	.	.	.	12B-/	.	.	.
.	.	.	.	12G/J	.	.	.
.	.	4b-\)	.	12e/L	.	4bb-\)	.
.	.	.	.	12B-/	.	.	.
.	.	.	.	12G/J	.	.	.
8c'\L	.	8a'\L	.	12e/L	.	[4bb-\	.
.	.	.	.	12B-/	.	.	.
8B-'\J	.	8g'\J	.	.	.	.	.
.	.	.	.	12G/J	.	.	.
=124	=124	=124	=124	=124	=124	=124	=124
8A\L	.	8f\L	.	4g/	.	4bb-\]	.
8B-\	.	8g\	.	.	.	.	.
8G\	.	8e\	.	4a/	.	2bb-\	.
8F\J	.	8d\J	.	.	.	.	.
4E\	.	4d-\	.	4b-\	.	.	.
8e'\L	.	4r	.	8gg'\L	.	8ccc'\L	.
8d'\J	.	.	.	8ff'\J	.	8bb-'\J	.
=125	=125	=125	=125	=125	=125	=125	=125
(8c#\L	.	4r	.	(8ee\L	.	(8aa\L	.
8d\)	.	.	.	8ff\)	.	8bb-\)	.
8B-'\	.	8g'\L	.	8dd'\	.	8gg'\	.
8A'\J	.	8a'\J	.	8cc'\J	.	8ff'\J	.
4G\	.	4b-\	.	4b-\	.	4ee'\	.
8EE'/L	.	8G'/L	.	8gg'\L	.	8eee'\L	.
8FF'/J	.	8A'/J	.	8ff'\J	.	8ddd'\J	.
=126	=126	=126	=126	=126	=126	=126	=126
4GG/	.	4B-/	.	4ee\	.	(8ccc#\L	.
.	.	.	.	.	.	8eee\)	.
4r	.	4r	.	4r	.	8bb-\	.
.	.	.	.	.	.	8aa\J	.
2r	.	2r	.	2r	.	(8gg\L	.
.	.	.	.	.	.	8bb-\)	.
.	.	.	.	.	.	8ee\	.
.	.	.	.	.	.	8dd\J	.
=127	=127	=127	=127	=127	=127	=127	=127
1r	.	1r	.	1r	.	(8cc#\L	.
.	.	.	.	.	.	8ee\)	.
.	.	.	.	.	.	8b-\	.
.	.	.	.	.	.	8a\J	.
.	.	.	.	.	.	(8g/L	.
.	.	.	.	.	.	8b-/)	.
.	.	.	.	.	.	8e/	.
.	.	.	.	.	.	8d/J	.
=128	=128	=128	=128	=128	=128	=128	=128
8c#\L	.	2r	.	4r	.	8c#/	.
8e\	.	.	.	.	.	8r	.
8B-'\	.	.	.	8c#'/L	.	8e'/L	.
8A'\J	.	.	.	8d'/J	.	8f'/J	.
(8G\L	.	4r	.	4e/	.	8g/	.
8B-\)	.	.	.	.	.	8r	.
8E'\	.	8e'\L	.	4r	.	8cc#'\L	.
8D'\J	.	8f'\J	.	.	.	8dd'\J	.
=129	=129	=129	=129	=129	=129	=129	=129
(8C#/L	.	8g\	.	4r	.	8ee\	.
8E/)	.	8r	.	.	.	8r	.
8BB-'/	.	4r	.	8ee'\L	.	8gg'\L	.
8AA'/J	.	.	.	8ff'\J	.	8aa'\J	.
(8GG/L	.	4r	.	8gg\	.	8bb-\	.
8BB-/)	.	.	.	8r	.	8r	.
8EE'/	.	8g'\L 8a'\	.	8gg'\L	.	8ccc#'\L	.
8AA'/J	.	8g'\J 8a'\	.	8ee'\J	.	8ccc#'\J	.
=130	=130	=130	=130	=130	=130	=130	=130
4FF/	.	4f\ 4a\	.	4a\ 4aa\	.	8ddd\L	.
.	.	.	.	.	.	8fff\	.
4r	.	4r	.	4r	.	8aa'\	.
.	.	.	.	.	.	8gg'\J	.
2r	.	2r	.	2r	.	(8ff\L	.
.	.	.	.	.	.	8aa\)	.
.	.	.	.	.	.	8dd\	.
.	.	.	.	.	.	8cc#\J	.
=131	=131	=131	=131	=131	=131	=131	=131
1r	.	1r	.	1r	.	(8dd\L	.
.	.	.	.	.	.	8ff\)	.
.	.	.	.	.	.	8a'\	.
.	.	.	.	.	.	8g'\J	.
.	.	.	.	.	.	(8f/L	.
.	.	.	.	.	.	8a/)	.
.	.	.	.	.	.	8d'/	.
.	.	.	.	.	.	8c#'/J	.
=132	=132	=132	=132	=132	=132	=132	=132
(8d\L	.	2r	.	4r	.	8d/	.
8f\)	.	.	.	.	.	8r	.
8A'\	.	.	.	8d'/L	.	8f'/L	.
8G'\J	.	.	.	8e'/J	.	8g'/J	.
(8F\L	.	4r	.	4f/	.	4a/	.
8A\)	.	.	.	.	.	.	.
8D'\	.	8F'/L	.	4r	.	8dd'\L	.
8C#'\J	.	8A'/J	.	.	.	8ee'\J	.
=133	=133	=133	=133	=133	=133	=133	=133
(8C/L	.	4A/	.	4r	.	8ff#\	.
8E-/)	.	.	.	.	.	8r	.
8AA/	.	4r	.	8a/L	.	8ff#\L	.
8GG/J	.	.	.	8bn/J	.	8gg\J	.
(8FF#/L	.	4r	.	4cc\	.	8aa\	.
8AA/)	.	.	.	.	.	8r	.
8EE-'/	.	8f#'\L	.	4r	.	8aa'\L	.
8DD'/J	.	8g'\J	.	.	.	8bb-'\J	.
=134	=134	=134	=134	=134	=134	=134	=134
4CC/	.	4a\	.	4f#\ 4ee-\	.	(8ccc\L	.
.	.	.	.	.	.	8eee-\)	.
4r	.	4r	.	4r	.	8aa'\	.
.	.	.	.	.	.	8gg'\J	.
2r	.	2r	.	2r	.	(8ff#\L	.
.	.	.	.	.	.	8aa\)	.
.	.	.	.	.	.	8ee-'\	.
.	.	.	.	.	.	8dd'\J	.
=135	=135	=135	=135	=135	=135	=135	=135
1r	.	1r	.	1r	.	(8cc\L	.
.	.	.	.	.	.	8ee-\)	.
.	.	.	.	.	.	8a'\	.
.	.	.	.	.	.	8g'\J	.
.	.	.	.	.	.	(8f#/L	.
.	.	.	.	.	.	8a/)	.
.	.	.	.	.	.	8e-'/	.
.	.	.	.	.	.	8d'/J	.
=136	=136	=136	=136	=136	=136	=136	=136
(8c\L	.	2r	.	4r	.	8c/	.
8e-\)	.	.	.	.	.	8r	.
8A'\	.	.	.	8f#'/L	.	8a'/L	.
8G'\J	.	.	.	8g'/J	.	8b-'/J	.
(8F#\L	.	4r	.	4a'/	.	8cc'\	.
8A\)	.	.	.	.	.	8r	.
8E-'\	.	8A'/L	.	4r	.	8ff#'\L	.
8D'\J	.	8B-'/J	.	.	.	8gg'\J	.
=137	=137	=137	=137	=137	=137	=137	=137
(8C/L	.	4c\	.	4r	.	8aa\	.
8E-/)	.	.	.	.	.	8r	.
8AA'/	.	4r	.	8f#'/L	.	8aa'\L	.
8GG'/J	.	.	.	8g'/J	.	8bb-'\J	.
(8FF#/L	.	4r	.	4a'/	.	8ccc'\	.
8AA/)	.	.	.	.	.	8r	.
8CC'/	.	8f#'\L 8a'\	.	4r	.	8ddd'\L	.
8C'/J	.	8f#'\J 8a'\	.	.	.	8ddd'\J	.
=138	=138	=138	=138	=138	=138	=138	=138
4BB-/	.	4g\ 4b-\	.	4d/ 4dd/	.	(8ddd\L	.
.	.	.	.	.	.	8ggg\)	.
4r	.	4r	.	8dd'\L	.	8ddd'\	.
.	.	.	.	8cc'\J	.	8ccc'\J	.
2r	.	4r	.	4b-\	.	(8bb-\L	.
.	.	.	.	.	.	8ddd\)	.
.	.	8B-'/L	.	4r	.	8bb-'\	.
.	.	8A'/J	.	.	.	8aa'\J	.
=139	=139	=139	=139	=139	=139	=139	=139
4r	.	4G/	.	2r	.	(8gg\L	.
.	.	.	.	.	.	8bb-\)	.
8D'/L	.	4r	.	.	.	8dd'\	.
8C'/J	.	.	.	.	.	8cc'\J	.
8BB-'/	.	4r	.	4r	.	(8b-\L	.
8r	.	.	.	.	.	8dd\)	.
8e-\L	.	8ee-\L	.	8ee-\L	.	8eee-\	.
8d\J	.	8dd\J	.	8dd\J	.	8ddd\J	.
=140	=140	=140	=140	=140	=140	=140	=140
(8e-\L	.	(8ee-\L	.	(8ee-\L	.	(8eee-\L	.
8g\)	.	8gg\)	.	8gg\)	.	8ggg\)	.
8B-'\	.	8b-'\	.	8b-'\	.	8bb-'\	.
8A-'\J	.	8a-'\J	.	8a-'\J	.	8aa-'\J	.
(8G\L	.	(8g\L	.	(8g/L	.	(8gg\L	.
8B-\)	.	8b-\)	.	8b-/)	.	8bb-\)	.
8E-'\	.	8e-'\	.	8e-'/	.	8ee-'\	.
8D'\J	.	8d'\J	.	8d'/J	.	8dd'\J	.
=141	=141	=141	=141	=141	=141	=141	=141
(8E-\L	.	(8e-\L	.	(8e-/L	.	(8ee-\L	.
8G\)	.	8g\)	.	8g/)	.	8gg\)	.
8BB-'\	.	8B-'\	.	8B-'/	.	8b-'\	.
8AA-'\J	.	8A-'\J	.	8A-'/J	.	8a-'\J	.
(8GG/L	.	(8G/L	.	(8G/L	.	(8g/L	.
8BB-/)	.	8B-/)	.	8B-/)	.	8b-/)	.
8EE-'/	.	8E-'/	.	8e-'/	.	8e-'/	.
8DD'/J	.	8D'/J	.	8d'/J	.	8d'/J	.
=142	=142	=142	=142	=142	=142	=142	=142
(8EE-/L	.	(8E-/L	.	(8e-/L	.	(8e-/L	.
8GG/)	.	8G/)	.	8g/)	.	8g/)	.
8BB-'/	.	8B-'/	.	8B-'/	.	8B-'/	.
8AA-'/J	.	8A-'/J	.	8A-'/J	.	8A-'/J	.
8GG'/L	.	8G'\L	.	8G'/L	.	8G'/L	.
8BB-'/	.	8B-'\	.	8B-'/	.	8B-'/	.
8E-'/	.	8e-'\	.	8e-'/	.	8e-'/	.
8G'/J	.	8g'\J	.	8G'/J	.	8g'/J	.
=143	=143	=143	=143	=143	=143	=143	=143
8B-\L	.	8b-\L	.	8B-/L	.	8b-\L	.
8e-\	.	8G\	.	8B-/	.	8ee-\	.
8B-\	.	8B-\	.	8e-/	.	8gg\	.
8G\J	.	8e-\J	.	8g/J	.	8bb-\J	.
8E-/L	.	8g\L	.	8b-\L	.	8eee-\L	.
8BB-/	.	8b-\	.	8ee-\	.	8ggg\	.
8GG/	.	8ee-\	.	8gg\	.	8ggg\	.
8GG/J	.	8ee-\J	.	8bb-\J	.	8ggg\J	.
=144	=144	=144	=144	=144	=144	=144	=144
1r	.	2r	.	2dd-'\	.	2eee'\	.
.	.	2c#'\ 2e'\	.	2r	.	2r	.
=145	=145	=145	=145	=145	=145	=145	=145
2r	.	1r	.	2Bn'/ 2d'/	.	2A-'/ 2f'/	.
2GG#'/	.	.	.	2r	.	2r	.
=146	=146	=146	=146	=146	=146	=146	=146
1r	.	2r	.	2cc#\	.	2eee\	.
.	.	2c#\ 2e\	.	2r	.	2r	.
=147	=147	=147	=147	=147	=147	=147	=147
2r	.	1r	.	2Bn/ 2d/	.	2G#/ 2f/	.
2GG#/	.	.	.	2r	.	2r	.
=148	=148	=148	=148	=148	=148	=148	=148
1r	.	2r	.	2bn\	.	2ddd\	.
.	.	2Bn\ 2d\	.	2r	.	2r	.
=149	=149	=149	=149	=149	=149	=149	=149
2r	.	1r	.	2c/	.	2e-/	.
2GG-/	.	.	.	2r	.	2r	.
=150	=150	=150	=150	=150	=150	=150	=150
2r	.	2F'/	.	2aa'\	.	2ccc'\	.
2F'\	.	2cc'\	.	2A'/ 2f'/	.	2c/	.
=151	=151	=151	=151	=151	=151	=151	=151
2BB-'/	.	2dd-'\	.	2B-'/ 2f'/	.	2d-'/	.
2FF'/	.	2B-'/	.	2f'/ 2b-'/	.	2dd-\	.
=152	=152	=152	=152	=152	=152	=152	=152
[1EE	.	[1C [1G	.	[1g	.	(4cc\	.
.	.	.	.	.	.	4dd\	.
.	.	.	.	.	.	4ee\	.
.	.	.	.	.	.	4ff\)	.
=153	=153	=153	=153	=153	=153	=153	=153
1EE_	.	1C_ 1G_	.	1g_	.	(2.ee\	.
.	.	.	.	.	.	8ff\L	.
.	.	.	.	.	.	8ee\J	.
=154	=154	=154	=154	=154	=154	=154	=154
1EE_	.	1C_ 1G_	.	1g_	.	8dd\L	.
.	.	.	.	.	.	8ee\)	.
.	.	.	.	.	.	8cc'\	.
.	.	.	.	.	.	8bn'\J	.
.	.	.	.	.	.	(8dd/L	.
.	.	.	.	.	.	8cc/)	.
.	.	.	.	.	.	8g'/	.
.	.	.	.	.	.	8f'/J	.
=155	=155	=155	=155	=155	=155	=155	=155
1EE_	.	1C_ 1G_	.	1g_	.	(8a/L	.
.	.	.	.	.	.	8g/)	.
.	.	.	.	.	.	8e'/	.
.	.	.	.	.	.	8d'/J	.
.	.	.	.	.	.	(8f/L	.
.	.	.	.	.	.	8e/)	.
.	.	.	.	.	.	8c'/	.
.	.	.	.	.	.	8Bn'/J	.
=156	=156	=156	=156	=156	=156	=156	=156
1EE_	.	1C_ 1G_	.	1g_	.	8d'/L	.
.	.	.	.	.	.	8c'/	.
.	.	.	.	.	.	8f'/	.
.	.	.	.	.	.	8e'/J	.
.	.	.	.	.	.	8a'\L	.
.	.	.	.	.	.	8g'\	.
.	.	.	.	.	.	8dd'\	.
.	.	.	.	.	.	8cc'\J	.
=157	=157	=157	=157	=157	=157	=157	=157
1EE]	.	1C] 1G]	.	1g]	.	8ff'\L	.
.	.	.	.	.	.	8ee'\	.
.	.	.	.	.	.	8aa'\	.
.	.	.	.	.	.	8gg'\J	.
.	.	.	.	.	.	8ccc'\L	.
.	.	.	.	.	.	8bbn'\	.
.	.	.	.	.	.	8ddd-'\	.
.	.	.	.	.	.	8ccc'\J	.
=158	=158	=158	=158	=158	=158	=158	=158
[1FF	.	[1C	.	[1A- [1a-	.	(8bb-\L	.
.	.	.	.	.	.	8aa-\)	.
.	.	.	.	.	.	8ff'\	.
.	.	.	.	.	.	8ee'\J	.
.	.	.	.	.	.	(8gg\L	.
.	.	.	.	.	.	8ff\)	.
.	.	.	.	.	.	8cc'\	.
.	.	.	.	.	.	8bn'\J	.
=159	=159	=159	=159	=159	=159	=159	=159
1FF_	.	1C]	.	1A-_ 1a-_	.	(8dd-\L	.
.	.	.	.	.	.	8cc\)	.
.	.	.	.	.	.	8a-'\	.
.	.	.	.	.	.	8g'\J	.
.	.	.	.	.	.	(8b-/L	.
.	.	.	.	.	.	8a-/)	.
.	.	.	.	.	.	8f'/	.
.	.	.	.	.	.	8e'/J	.
=160	=160	=160	=160	=160	=160	=160	=160
1FF_	.	[1D-	.	1A-_ 1a-_	.	8g'/L	.
.	.	.	.	.	.	8f'/	.
.	.	.	.	.	.	8b-'/	.
.	.	.	.	.	.	8a-'/J	.
.	.	.	.	.	.	8dd-'\L	.
.	.	.	.	.	.	8cc'\	.
.	.	.	.	.	.	8ee-'\	.
.	.	.	.	.	.	8dd-'\J	.
=161	=161	=161	=161	=161	=161	=161	=161
1FF]	.	1D-_	.	1A-] 1a-]	.	8gg-'\L	.
.	.	.	.	.	.	8ff'\	.
.	.	.	.	.	.	8bb-'\	.
.	.	.	.	.	.	8aa-'\J	.
.	.	.	.	.	.	8ddd-'\L	.
.	.	.	.	.	.	8ccc'\	.
.	.	.	.	.	.	8eee-'\	.
.	.	.	.	.	.	8ddd-'\J	.
=162	=162	=162	=162	=162	=162	=162	=162
[1GG-	.	1D-_	.	1B-	.	8ccc\L	.
.	.	.	.	.	.	8bb-\	.
.	.	.	.	.	.	8aa-\	.
.	.	.	.	.	.	8gg-\J	.
.	.	.	.	.	.	8ff\L	.
.	.	.	.	.	.	8ee-\	.
.	.	.	.	.	.	8dd-\	.
.	.	.	.	.	.	8cc\J	.
=163	=163	=163	=163	=163	=163	=163	=163
1GG-]	.	(2D-/]	.	1b-	.	8b-/L	.
.	.	.	.	.	.	8a-/	.
.	.	.	.	.	.	8g-/	.
.	.	.	.	.	.	8f/J	.
.	.	2E-/)	.	.	.	8ee-\L	.
.	.	.	.	.	.	8dd-\	.
.	.	.	.	.	.	8eee-\	.
.	.	.	.	.	.	8ddd-\J	.
=164	=164	=164	=164	=164	=164	=164	=164
[1AA-	.	[1E-	.	1c	.	8ccc\L	.
.	.	.	.	.	.	8bb-\	.
.	.	.	.	.	.	8aa-\	.
.	.	.	.	.	.	8gg-\J	.
.	.	.	.	.	.	8ff\L	.
.	.	.	.	.	.	8ee-\	.
.	.	.	.	.	.	8dd-\	.
.	.	.	.	.	.	8cc\J	.
=165	=165	=165	=165	=165	=165	=165	=165
1AA-]	.	(2E-/]	.	1cc	.	8b-/L	.
.	.	.	.	.	.	8a-/	.
.	.	.	.	.	.	8g-/	.
.	.	.	.	.	.	8f/J	.
.	.	[2F/)	.	.	.	8gg-\L	.
.	.	.	.	.	.	8ff\	.
.	.	.	.	.	.	8fff\	.
.	.	.	.	.	.	8eee-\J	.
=166	=166	=166	=166	=166	=166	=166	=166
1BB-	.	(2F/]	.	(2d-/	.	8ddd-\L	.
.	.	.	.	.	.	8ccc\	.
.	.	.	.	.	.	8bb-\	.
.	.	.	.	.	.	8aa-\J	.
.	.	[2G-/)	.	2dd-\	.	8gg-\L	.
.	.	.	.	.	.	8ff\	.
.	.	.	.	.	.	8ggg-\	.
.	.	.	.	.	.	8fff\J	.
=167	=167	=167	=167	=167	=167	=167	=167
[1C	.	(2G-/]	.	2e-/	.	8eee-\L	.
.	.	.	.	.	.	8ddd-\	.
.	.	.	.	.	.	8ccc\	.
.	.	.	.	.	.	8bb-\J	.
.	.	[2A-/)	.	2ee-\)	.	8aa-\L	.
.	.	.	.	.	.	8gg-\	.
.	.	.	.	.	.	8ff\	.
.	.	.	.	.	.	8ee-\J	.
=168	=168	=168	=168	=168	=168	=168	=168
1C]	.	1A-_	.	2.ee-\	.	8dd-\L	.
.	.	.	.	.	.	8cc\	.
.	.	.	.	.	.	8b-\	.
.	.	.	.	.	.	8a-\J	.
.	.	.	.	.	.	8g-/L	.
.	.	.	.	.	.	8f/	.
.	.	.	.	[4e-/	.	8e-/	.
.	.	.	.	.	.	8d-/J	.
=169	=169	=169	=169	=169	=169	=169	=169
4C/	.	1A-_	.	(4e-/]	.	8c/L	.
.	.	.	.	.	.	8A-/	.
4D-\	.	.	.	4f/	.	8B-/	.
.	.	.	.	.	.	8A-/J	.
4E-\	.	.	.	4g-/	.	8B-/L	.
.	.	.	.	.	.	8A-/	.
4F\	.	.	.	4a-/)	.	8e-/	.
.	.	.	.	.	.	8d-/J	.
=170	=170	=170	=170	=170	=170	=170	=170
1D-	.	(4A-/]	.	1f	.	8g-/L	.
.	.	.	.	.	.	8f/	.
.	.	4B-/	.	.	.	8b-/	.
.	.	.	.	.	.	8a-/J	.
.	.	4c\	.	.	.	8b-\L	.
.	.	.	.	.	.	8a-\	.
.	.	4d-\)	.	.	.	8ee-\	.
.	.	.	.	.	.	8dd-\J	.
=171	=171	=171	=171	=171	=171	=171	=171
(4C/	.	[1A-	.	(4e-/	.	8b-/L	.
.	.	.	.	.	.	8a-/	.
4D-\	.	.	.	4f/	.	8b-/	.
.	.	.	.	.	.	8a-/J	.
4E-\	.	.	.	4g-/	.	8dd-\L	.
.	.	.	.	.	.	8cc\	.
4F\)	.	.	.	4a-/)	.	8ee-\	.
.	.	.	.	.	.	8dd-\J	.
=172	=172	=172	=172	=172	=172	=172	=172
(2.D-\	.	(4A-/]	.	1f	.	8gg-\L	.
.	.	.	.	.	.	8ff\	.
.	.	4B-/	.	.	.	8aa-\	.
.	.	.	.	.	.	8gg-\J	.
.	.	4c\	.	.	.	8bb-\L	.
.	.	.	.	.	.	8aa-\	.
4A-\	.	4d-\)	.	.	.	8eee-\	.
.	.	.	.	.	.	8ddd-\J	.
=173	=173	=173	=173	=173	=173	=173	=173
4F\	.	(4A-/	.	(4d/	.	8ccc\L	.
.	.	.	.	.	.	8bb-\	.
4G-\	.	4B-/	.	4e-/	.	8fff\	.
.	.	.	.	.	.	8eee-\J	.
4A-\	.	4dn\	.	4f/	.	8ggg-\L	.
.	.	.	.	.	.	8fff\	.
4B-\)	.	4e-\)	.	4g-/)	.	8aaa-\	.
.	.	.	.	.	.	8ggg-\J	.
=174	=174	=174	=174	=174	=174	=174	=174
(2.A-\	.	2.d-\	.	2.f/	.	8bbb-\L	.
.	.	.	.	.	.	8aaa-\	.
.	.	.	.	.	.	8bbb-\	.
.	.	.	.	.	.	8aaa-\J	.
.	.	.	.	.	.	8bbb-\L	.
.	.	.	.	.	.	8aaa-\	.
8G-\L	.	(8c\L	.	(8e-/L	.	8bbb-\	.
8F\J)	.	8d-\J	.	8f/J	.	8aaa-\J	.
=175	=175	=175	=175	=175	=175	=175	=175
(4E-\	.	4e-\	.	4g-/	.	8bbb-\L	.
.	.	.	.	.	.	8aaa-\	.
2A-\	.	8c\L	.	8e-/L	.	8ggg-\	.
.	.	8d-\J	.	8f/J	.	8fff\J	.
.	.	8e-\L	.	8g-/L	.	8eee-\L	.
.	.	8f\	.	8a-/	.	8ddd-\	.
4G-\)	.	8g-\	.	8b-/	.	8ccc\	.
.	.	8a-\J)	.	8cc/J	.	8eee-\J	.
=176	=176	=176	=176	=176	=176	=176	=176
1F	.	2.a-\	.	2.dd-\)	.	(4aa-\	.
.	.	.	.	.	.	4bb-\	.
.	.	.	.	.	.	4ccc\	.
.	.	[4d-\	.	[4a-/	.	4ddd-\)	.
=177	=177	=177	=177	=177	=177	=177	=177
1G-	.	(4d-\]	.	(4a-/]	.	1bb-	.
.	.	4e-\	.	4g-/	.	.	.
.	.	4f\	.	4f/	.	.	.
.	.	4g-\)	.	4e-/)	.	.	.
=178	=178	=178	=178	=178	=178	=178	=178
[1A-	.	(4e\	.	1d-	.	(2.aa-\	.
.	.	4f\	.	.	.	.	.
.	.	4g-\	.	.	.	.	.
.	.	4a-\)	.	.	.	8gg-\L	.
.	.	.	.	.	.	8ff\J)	.
=179	=179	=179	=179	=179	=179	=179	=179
1A-]	.	1g-	.	1c	.	1ee-	.
=180	=180	=180	=180	=180	=180	=180	=180
1d-	.	(4f\	.	(4d-/	.	1dd-	.
.	.	4g-\	.	4e-/	.	.	.
.	.	4a-\	.	4f/	.	.	.
.	.	8b-\L	.	8g-/L	.	.	.
.	.	8a-\J)	.	8f/J)	.	.	.
=181	=181	=181	=181	=181	=181	=181	=181
(4A-\	.	(2.e-\	.	(2.g-/	.	(4cc\	.
4G-\	.	.	.	.	.	4dd-\	.
4F\	.	.	.	.	.	4ee-\	.
8E-\L	.	4c\)	.	4a-/)	.	8ff\L	.
8A-\J)	.	.	.	.	.	8ee-\J)	.
=182	=182	=182	=182	=182	=182	=182	=182
2.A-\	.	(8d-\L	.	(8f/L	.	1dd-	.
.	.	8e-\)	.	8g-/)	.	.	.
.	.	8d-\	.	8f'/	.	.	.
.	.	8e-\J	.	8g-'/J	.	.	.
.	.	(8f\L	.	(8a-/L	.	.	.
.	.	8g-\)	.	8b-/)	.	.	.
([4AA-/	.	8f\	.	8a-'/	.	.	.
.	.	8g-\J	.	8b-'/J	.	.	.
=183	=183	=183	=183	=183	=183	=183	=183
4AA-/]	.	(2.e-\	.	(2.g-/	.	8cc\L	.
.	.	.	.	.	.	8dd-\	.
4GG-/	.	.	.	.	.	8cc\	.
.	.	.	.	.	.	8dd-\J	.
4FF/	.	.	.	.	.	8ee-\L	.
.	.	.	.	.	.	8ff-\	.
8EE-/L)	.	4g-\)	.	4a-/)	.	8ee-\	.
8AA-/J	.	.	.	.	.	8ff\J	.
=184	=184	=184	=184	=184	=184	=184	=184
4BB-'/	.	4f'\	.	4b-'\	.	8ddn\L	.
.	.	.	.	.	.	8ee-\	.
4r	.	4r	.	4r	.	8dd\	.
.	.	.	.	.	.	8ee-\J	.
2r	.	2r	.	2r	.	8ff-\L	.
.	.	.	.	.	.	8gg-\	.
.	.	.	.	.	.	8ff\	.
.	.	.	.	.	.	8gg-\J	.
=185	=185	=185	=185	=185	=185	=185	=185
1r	.	1r	.	2r	.	8ee-\L	.
.	.	.	.	.	.	8ff-\	.
.	.	.	.	.	.	8ee-\	.
.	.	.	.	.	.	8ff\J	.
.	.	.	.	[2ee-\	.	8gg-\L	.
.	.	.	.	.	.	8aa-\	.
.	.	.	.	.	.	8gg-\	.
.	.	.	.	.	.	8aa-\J	.
=186	=186	=186	=186	=186	=186	=186	=186
1r	.	1r	.	2ee-\]	.	8ff\L	.
.	.	.	.	.	.	8gg-\	.
.	.	.	.	.	.	8ff\	.
.	.	.	.	.	.	8gg-\J	.
.	.	.	.	2dd\	.	8aa-\L	.
.	.	.	.	.	.	8bb--\	.
.	.	.	.	.	.	8aa-\	.
.	.	.	.	.	.	8bb-\J	.
=187	=187	=187	=187	=187	=187	=187	=187
1r	.	1r	.	4ee-\	.	8gg-\L	.
.	.	.	.	.	.	8aa-\	.
.	.	.	.	4b-'\	.	8gg-\	.
.	.	.	.	.	.	8aa-\J	.
.	.	.	.	[2gg-\	.	8bb--\L	.
.	.	.	.	.	.	8ccc-\	.
.	.	.	.	.	.	8bb-\	.
.	.	.	.	.	.	8ccc-\J	.
=188	=188	=188	=188	=188	=188	=188	=188
1r	.	1r	.	(2gg-\]	.	(8aan\L	.
.	.	.	.	.	.	8bb-\)	.
.	.	.	.	.	.	8aa'\	.
.	.	.	.	.	.	8bb-'\J	.
.	.	.	.	[2ff\)	.	(8eee\L	.
.	.	.	.	.	.	8fff-\)	.
.	.	.	.	.	.	8eee'\	.
.	.	.	.	.	.	8fff-'\J	.
=189	=189	=189	=189	=189	=189	=189	=189
1r	.	1r	.	(4ff\]	.	(8eee-\L	.
.	.	.	.	.	.	8ddd-\)	.
.	.	.	.	8ee-\L	.	8ccc-'\	.
.	.	.	.	8dd-\J	.	8bb--'\J	.
.	.	.	.	4cc\	.	8aan'\L	.
.	.	.	.	.	.	8bb-'\	.
.	.	.	.	4ff\)	.	8ccc'\	.
.	.	.	.	.	.	8aa#'\J	.
=190	=190	=190	=190	=190	=190	=190	=190
1r	.	2r	.	(8b-\L	.	4bb-\	.
.	.	.	.	8cc\)	.	.	.
.	.	.	.	8b-'\	.	4r	.
.	.	.	.	8cc'\J	.	.	.
.	.	[2b-\	.	(8dd-\L	.	2r	.
.	.	.	.	8ee-\)	.	.	.
.	.	.	.	8dd-'\	.	.	.
.	.	.	.	8ee-'\J	.	.	.
=191	=191	=191	=191	=191	=191	=191	=191
1r	.	2b-\]	.	(8cc\L	.	1r	.
.	.	.	.	8dd-\)	.	.	.
.	.	.	.	8cc'\	.	.	.
.	.	.	.	8dd-'\J	.	.	.
.	.	2a\	.	(8ee-\L	.	.	.
.	.	.	.	8ff\)	.	.	.
.	.	.	.	8ee-'\	.	.	.
.	.	.	.	8ff'\J	.	.	.
=192	=192	=192	=192	=192	=192	=192	=192
1r	.	4b-\	.	(8dd-\L	.	1r	.
.	.	.	.	8ee-\)	.	.	.
.	.	4f\	.	8dd-'\	.	.	.
.	.	.	.	8ee-'\J	.	.	.
.	.	[2dd-\	.	(8ff\L	.	.	.
.	.	.	.	8gg-\)	.	.	.
.	.	.	.	8ff'\	.	.	.
.	.	.	.	8gg-'\J	.	.	.
=193	=193	=193	=193	=193	=193	=193	=193
1r	.	2dd-\]	.	(8ee-\L	.	1r	.
.	.	.	.	8ff\)	.	.	.
.	.	.	.	8ee-'\	.	.	.
.	.	.	.	8ff'\J	.	.	.
.	.	[2cc-\	.	(8gg-\L	.	.	.
.	.	.	.	8aa-\)	.	.	.
.	.	.	.	8gg-'\	.	.	.
.	.	.	.	8aa-'\J	.	.	.
=194	=194	=194	=194	=194	=194	=194	=194
1r	.	(8cc-\L]	.	(8dd\L	.	1r	.
.	.	8b-\)	.	8ee-\)	.	.	.
.	.	8a-'\	.	8ff'\	.	.	.
.	.	8g-'\J	.	8gg-'\J	.	.	.
.	.	(4f\	.	8aa-'\L	.	.	.
.	.	.	.	8bb-'\	.	.	.
.	.	4b-\)	.	8bbn'\	.	.	.
.	.	.	.	8dd'\J	.	.	.
=195	=195	=195	=195	=195	=195	=195	=195
1r	.	(8e-\L	.	4ee-\	.	2r	.
.	.	8f\)	.	.	.	.	.
.	.	8e-'\	.	4r	.	.	.
.	.	8f'\J	.	.	.	.	.
.	.	(8g-\L	.	(8b-\L	.	[2ee-\	.
.	.	8a-\)	.	8cc-\)	.	.	.
.	.	8g-'\	.	8b-\	.	.	.
.	.	8a-'\J	.	8cc-\J	.	.	.
=196	=196	=196	=196	=196	=196	=196	=196
1r	.	8f\L	.	4a-/	.	2ee-\]	.
.	.	8g-\	.	.	.	.	.
.	.	8f'\	.	4r	.	.	.
.	.	8g-'\J	.	.	.	.	.
.	.	(8a-\L	.	(8f/L	.	2dd\	.
.	.	8b-\)	.	8g-/)	.	.	.
.	.	8a-'\	.	8f/	.	.	.
.	.	8b-'\J	.	8g-/J	.	.	.
=197	=197	=197	=197	=197	=197	=197	=197
1r	.	(8g-\L	.	4e-/	.	4ee-'\	.
.	.	8a-\)	.	.	.	.	.
.	.	8g-'\	.	4r	.	4b-'\	.
.	.	8a-'\J	.	.	.	.	.
.	.	(8b-\L	.	[2e-/	.	[2gg-\	.
.	.	8cc-\)	.	.	.	.	.
.	.	8b-'\	.	.	.	.	.
.	.	8cc-'\J	.	.	.	.	.
=198	=198	=198	=198	=198	=198	=198	=198
2r	.	(8an\L	.	2e-/]	.	2gg-\]	.
.	.	8b-\)	.	.	.	.	.
.	.	8ccn'\	.	.	.	.	.
.	.	8a'\J	.	.	.	.	.
[2BB-/	.	8b-'\L	.	[2d-/	.	[2ff\	.
.	.	8f'\	.	.	.	.	.
.	.	8d-'\	.	.	.	.	.
.	.	8B-'\J	.	.	.	.	.
=199	=199	=199	=199	=199	=199	=199	=199
2BB-/]	.	(8G-/L	.	4d-/]	.	4ff\]	.
.	.	8A-/)	.	.	.	.	.
.	.	8G-'/	.	2c/	.	8ee-\L	.
.	.	8F'/J	.	.	.	8dd-\J	.
2AA/	.	8E-'/L	.	.	.	4cc\	.
.	.	8D-'/	.	.	.	.	.
.	.	8C'/	.	[4cc\	.	4ff\	.
.	.	8c'/J	.	.	.	.	.
=200	=200	=200	=200	=200	=200	=200	=200
4BB-'/	.	4F/	.	2cc\]	.	(8dd-\L	.
.	.	.	.	.	.	8ee-\)	.
4FF'/	.	4r	.	.	.	8dd-'\	.
.	.	.	.	.	.	8ee-'\J	.
[2D-\	.	2r	.	[2b-\	.	(8ff\L	.
.	.	.	.	.	.	8gg-\)	.
.	.	.	.	.	.	8ff'\	.
.	.	.	.	.	.	8gg-'\J	.
=201	=201	=201	=201	=201	=201	=201	=201
2D-\]	.	1r	.	4b-\]	.	(8ee\L	.
.	.	.	.	.	.	8ff\)	.
.	.	.	.	8g'/L	.	8ee'\	.
.	.	.	.	8a-'/J	.	8ff'\J	.
[2C/	.	.	.	(8en/L	.	(8gg\L	.
.	.	.	.	8f/)	.	8aa-\)	.
.	.	.	.	8e'/	.	8gg'\	.
.	.	.	.	8f'/J	.	8aa-'\J	.
=202	=202	=202	=202	=202	=202	=202	=202
(4C/]	.	2r	.	(8g/L	.	(8bb-\L	.
.	.	.	.	8a-/)	.	8ccc\)	.
8BB-/L	.	.	.	8g'/	.	8bb-\	.
8AA-/J	.	.	.	8a-'/J	.	8ccc\J	.
4GG/	.	[2b-\	.	(8b-\L	.	(8ddd\L	.
.	.	.	.	8cc\)	.	8eeen\)	.
4C/)	.	.	.	8cc'\	.	8ddd\	.
.	.	.	.	8cc'\J	.	8eee\J	.
=203	=203	=203	=203	=203	=203	=203	=203
(8FF/L	.	2b-\]	.	4cc\	.	4fff\	.
8GG/)	.	.	.	.	.	.	.
8FF'/	.	.	.	4r	.	4r	.
8GG'/J	.	.	.	.	.	.	.
(8AA-/L	.	2a-\	.	[2f/	.	[2ff\	.
8BB-/)	.	.	.	.	.	.	.
8AA-'/	.	.	.	.	.	.	.
8BB-'/J	.	.	.	.	.	.	.
=204	=204	=204	=204	=204	=204	=204	=204
(8GG/L	.	2r	.	2f/]	.	2ff\]	.
8AA-/)	.	.	.	.	.	.	.
8GG'/	.	.	.	.	.	.	.
8AA-'/J	.	.	.	.	.	.	.
(8BB-/L	.	[2G/	.	2e/	.	2een\	.
8C/)	.	.	.	.	.	.	.
8BB-'/	.	.	.	.	.	.	.
8C'/J	.	.	.	.	.	.	.
=205	=205	=205	=205	=205	=205	=205	=205
(8AA-/L	.	2G/]	.	4f'/	.	4ff'\	.
8BB-/)	.	.	.	.	.	.	.
8AA-'/	.	.	.	4c'/	.	4cc'\	.
8BB-'/J	.	.	.	.	.	.	.
(8C/L	.	2F/	.	[2a-/	.	[2aa-\	.
8D-/)	.	.	.	.	.	.	.
8C'/	.	.	.	.	.	.	.
8D-'/J	.	.	.	.	.	.	.
=206	=206	=206	=206	=206	=206	=206	=206
(8BB-/L	.	4G-'/	.	(2a-/]	.	(2aa-\]	.
8C/)	.	.	.	.	.	.	.
8BB-'/	.	4D-'/	.	.	.	.	.
8C'/J	.	.	.	.	.	.	.
(8D-\L	.	[2B-/	.	2g-/)	.	2gg-\)	.
8E-\)	.	.	.	.	.	.	.
8D-'\	.	.	.	.	.	.	.
8E-'\J	.	.	.	.	.	.	.
=207	=207	=207	=207	=207	=207	=207	=207
(8C/L	.	2B-/]	.	4a'/	.	4aan'\	.
8D-/)	.	.	.	.	.	.	.
8C'/	.	.	.	4e-'/	.	4ee-'\	.
8D-'/J	.	.	.	.	.	.	.
(8E-\L	.	2A/	.	[2cc\	.	[2ccc\	.
8F\)	.	.	.	.	.	.	.
8E-'\	.	.	.	.	.	.	.
8F'\J	.	.	.	.	.	.	.
=208	=208	=208	=208	=208	=208	=208	=208
(8D\L	.	4Bn/	.	(2cc\]	.	(2ccc\]	.
8E-\)	.	.	.	.	.	.	.
8D'\	.	4F/	.	.	.	.	.
8E-'\J	.	.	.	.	.	.	.
(8F\L	.	[2d\	.	2bn\)	.	2bbn\)	.
8G\)	.	.	.	.	.	.	.
8F'\	.	.	.	.	.	.	.
8G'\J	.	.	.	.	.	.	.
=209	=209	=209	=209	=209	=209	=209	=209
(8E\L	.	2d\]	.	4cc'\	.	4ccc'\	.
8F\)	.	.	.	.	.	.	.
8E'\	.	.	.	4g'/	.	4gg'\	.
8F'\J	.	.	.	.	.	.	.
(8G\L	.	2c\	.	[2ee\	.	[2eee\	.
8A-\)	.	.	.	.	.	.	.
8G'\	.	.	.	.	.	.	.
8A-'\J	.	.	.	.	.	.	.
=210	=210	=210	=210	=210	=210	=210	=210
[1F	.	[1Bn [1a-	.	2ee\]	.	2eee\]	.
.	.	.	.	[2dd\	.	[2ddd\	.
=211	=211	=211	=211	=211	=211	=211	=211
1F_	.	1B_ 1a-_	.	2dd\]	.	2ddd\]	.
.	.	.	.	[2bn\	.	[2bbn\	.
=212	=212	=212	=212	=212	=212	=212	=212
1F_	.	2B\] 2a-\]	.	2b\]	.	2bb\]	.
.	.	[2Bn\ [2d\	.	[2a-/	.	[2aa-\	.
=213	=213	=213	=213	=213	=213	=213	=213
1F_	.	1B_ 1d_	.	4a-/]	.	4aa-\]	.
.	.	.	.	2f/	.	2ff\	.
.	.	.	.	[4d/	.	[4dd\	.
=214	=214	=214	=214	=214	=214	=214	=214
4F\]	.	4B\] 4d\]	.	4d/]	.	4dd\]	.
4r	.	2Bn/	.	4r	.	2bn\	.
2r	.	.	.	2r	.	.	.
.	.	[4A-/	.	.	.	[4a-/	.
=215	=215	=215	=215	=215	=215	=215	=215
4r	.	4A-/]	.	1r	.	4a-/]	.
2F\	.	4r	.	.	.	2f/	.
.	.	2r	.	.	.	.	.
[4D\	.	.	.	.	.	[4d/	.
=216	=216	=216	=216	=216	=216	=216	=216
4D\]	.	4r	.	4r	.	4d/]	.
2BBn/	.	2Bn/	.	2Bn/	.	2Bn/	.
[4AA-/	.	[4A-/	.	[4A-/	.	[4A-/	.
=217	=217	=217	=217	=217	=217	=217	=217
4AA-/]	.	4A-/]	.	4A-/]	.	4A-/]	.
2GG/	.	2G/	.	2G/	.	2G/	.
4GG/	.	4G/	.	4G/	.	4G/	.
=218	=218	=218	=218	=218	=218	=218	=218
[1GG	.	1r	.	1G	.	[1G	.
=219	=219	=219	=219	=219	=219	=219	=219
1GG_	.	(4D/	.	(4Bn/	.	1G]	.
.	.	4E/	.	4c/	.	.	.
.	.	4F/	.	4d/	.	.	.
.	.	4G/	.	4e/	.	.	.
=220	=220	=220	=220	=220	=220	=220	=220
1GG_	.	2.E/	.	2.c/	.	12G/L	.
.	.	.	.	.	.	12c/	.
.	.	.	.	.	.	12e/J	.
.	.	.	.	.	.	12g\L	.
.	.	.	.	.	.	12cc\	.
.	.	.	.	.	.	12ee\J	.
.	.	.	.	.	.	12gg\L	.
.	.	.	.	.	.	12ee\	.
.	.	.	.	.	.	12cc\J	.
.	.	8F/L	.	8d/L	.	12g/L	.
.	.	.	.	.	.	12e/	.
.	.	8E/J)	.	8c/J)	.	.	.
.	.	.	.	.	.	12c/J	.
=221	=221	=221	=221	=221	=221	=221	=221
1GG]	.	(8D/L	.	(8Bn/L	.	1G	.
.	.	8E/)	.	8c/)	.	.	.
.	.	8D/	.	8B/	.	.	.
.	.	8E/J	.	8c/J	.	.	.
.	.	(8F/L	.	(8d/L	.	.	.
.	.	8G/)	.	8e/)	.	.	.
.	.	8F/	.	8d/	.	.	.
.	.	8G/J	.	8e/J	.	.	.
=222	=222	=222	=222	=222	=222	=222	=222
4C/	.	4E/	.	4c/	.	4c/	.
4r	.	4r	.	4r	.	(12gg\L	.
.	.	.	.	.	.	12ff\	.
.	.	.	.	.	.	12ee\J	.
2r	.	2r	.	2r	.	12dd\L	.
.	.	.	.	.	.	12ee\	.
.	.	.	.	.	.	12cc\J	.
.	.	.	.	.	.	4ccc\)	.
=223	=223	=223	=223	=223	=223	=223	=223
4c\	.	4g-\	.	4a/	.	4r	.
4r	.	4r	.	4r	.	(12aa\L	.
.	.	.	.	.	.	12gg\	.
.	.	.	.	.	.	12ff#\J	.
2r	.	2r	.	2r	.	12ee\L	.
.	.	.	.	.	.	12ff#\	.
.	.	.	.	.	.	12dd\J	.
.	.	.	.	.	.	4ddd\)	.
=224	=224	=224	=224	=224	=224	=224	=224
(4G\	.	(4B-/	.	1r	.	4r	.
4A\	.	4c\	.	.	.	(12dd\L	.
.	.	.	.	.	.	12cc\	.
.	.	.	.	.	.	12b-\J	.
4B-\	.	4d\	.	.	.	12a/L	.
.	.	.	.	.	.	12b-/	.
.	.	.	.	.	.	12g/J	.
4c\	.	4e-\	.	.	.	[4gg\)	.
=225	=225	=225	=225	=225	=225	=225	=225
2.B-\	.	2.d\	.	4r	.	4gg\]	.
.	.	.	.	(12dd\L	.	4r	.
.	.	.	.	12cc\	.	.	.
.	.	.	.	12b-\J	.	.	.
.	.	.	.	12a/L	.	2r	.
.	.	.	.	12b-/	.	.	.
.	.	.	.	12g/J	.	.	.
4G\)	.	4B-/)	.	[4dd\)	.	.	.
=226	=226	=226	=226	=226	=226	=226	=226
(4D\	.	(4F#/	.	4dd\]	.	4r	.
4E\	.	4G/	.	4r	.	(12aa\L	.
.	.	.	.	.	.	12gg\	.
.	.	.	.	.	.	12ff#\J	.
4F#\	.	4A/	.	2r	.	12ee\L	.
.	.	.	.	.	.	12ff#\	.
.	.	.	.	.	.	12dd\J	.
4G\	.	4B-/	.	.	.	[4ddd\)	.
=227	=227	=227	=227	=227	=227	=227	=227
2.Fn\	.	2.A/	.	4r	.	4ddd\]	.
.	.	.	.	(12aa\L	.	4r	.
.	.	.	.	12gg\	.	.	.
.	.	.	.	12ff\J	.	.	.
.	.	.	.	12ee\L	.	2r	.
.	.	.	.	12ff\	.	.	.
.	.	.	.	12dd\J	.	.	.
4D\)	.	4Fn/)	.	[4aa\)	.	.	.
=228	=228	=228	=228	=228	=228	=228	=228
1r	.	4r	.	(4aa\]	.	(4ccc#\	.
.	.	(12e\L	.	4bbn\	.	4ddd\	.
.	.	12d\	.	.	.	.	.
.	.	12c#\J	.	.	.	.	.
.	.	12Bn/L	.	4ccc#\	.	4eee\	.
.	.	12c#/	.	.	.	.	.
.	.	12A/J)	.	.	.	.	.
.	.	[4a\	.	4ddd\	.	4fff\	.
=229	=229	=229	=229	=229	=229	=229	=229
4r	.	4a\]	.	2.cccn\	.	2.eee\	.
(12E\L	.	4r	.	.	.	.	.
12D\	.	.	.	.	.	.	.
12C#\J	.	.	.	.	.	.	.
12BBn/L	.	2r	.	.	.	.	.
12C#/	.	.	.	.	.	.	.
12AA/J)	.	.	.	.	.	.	.
[4E\	.	.	.	4aa\)	.	4ccc\)	.
=230	=230	=230	=230	=230	=230	=230	=230
(4E\]	.	(4G#/	.	1r	.	4r	.
4F#\	.	4A/	.	.	.	(12bbn\L	.
.	.	.	.	.	.	12aa\	.
.	.	.	.	.	.	12gg#\J	.
4G#\	.	4Bn/	.	.	.	12ff#\L	.
.	.	.	.	.	.	12gg#\	.
.	.	.	.	.	.	12ee\J	.
4A\	.	4c\)	.	.	.	[4eee\)	.
=231	=231	=231	=231	=231	=231	=231	=231
2.Gn\	.	(2.Bn/	.	4r	.	4eee\]	.
.	.	.	.	(12bn/L	.	4r	.
.	.	.	.	12a/	.	.	.
.	.	.	.	12g/J	.	.	.
.	.	.	.	12f#/L	.	2r	.
.	.	.	.	12g/	.	.	.
.	.	.	.	12e/J	.	.	.
4E\)	.	4Gn/)	.	[4ee\)	.	.	.
=232	=232	=232	=232	=232	=232	=232	=232
1r	.	4r	.	(4ee\]	.	(4gg\	.
.	.	(12G/L	.	4ffn\	.	4aa\	.
.	.	12F/	.	.	.	.	.
.	.	12E/J	.	.	.	.	.
.	.	12D/L	.	4gg\	.	4bb-\	.
.	.	12E/	.	.	.	.	.
.	.	12C/J)	.	.	.	.	.
.	.	[4c\	.	4aa\)	.	4ccc\)	.
=233	=233	=233	=233	=233	=233	=233	=233
4r	.	4c\]	.	2.gg\	.	2.bb-\	.
(12GG/L	.	4r	.	.	.	.	.
12FF/	.	.	.	.	.	.	.
12EE/J	.	.	.	.	.	.	.
12DD/L	.	2r	.	.	.	.	.
12EE/	.	.	.	.	.	.	.
12CC/J)	.	.	.	.	.	.	.
[4C/	.	.	.	[4ee\	.	[4gg\	.
=234	=234	=234	=234	=234	=234	=234	=234
4C/]	.	(12G/L	.	(4ee\]	.	4gg\]	.
.	.	12F/	.	.	.	.	.
.	.	12E/J	.	.	.	.	.
4r	.	12D/L	.	4ff\	.	4aa\	.
.	.	12E/	.	.	.	.	.
.	.	12C/J)	.	.	.	.	.
2r	.	12c\L	.	4gg\	.	4bb-\	.
.	.	12c\	.	.	.	.	.
.	.	12c\J	.	.	.	.	.
.	.	12c\L	.	4aa\)	.	4ccc\	.
.	.	12c\	.	.	.	.	.
.	.	12c\J	.	.	.	.	.
=235	=235	=235	=235	=235	=235	=235	=235
(12GG/L	.	4c\	.	(2.gg\	.	(2.bb-\	.
12FF/	.	.	.	.	.	.	.
12EE/J	.	.	.	.	.	.	.
12DD/L	.	4r	.	.	.	.	.
12EE/	.	.	.	.	.	.	.
12CC/J)	.	.	.	.	.	.	.
12C/L	.	2r	.	.	.	.	.
12C/	.	.	.	.	.	.	.
12C/J	.	.	.	.	.	.	.
12C/L	.	.	.	4ee\)	.	4gg\)	.
12C/	.	.	.	.	.	.	.
12C/J	.	.	.	.	.	.	.
=236	=236	=236	=236	=236	=236	=236	=236
[1C	.	4r	.	4r	.	(12bb-\L	.
.	.	.	.	.	.	12aa\	.
.	.	.	.	.	.	12gg\J	.
.	.	2e\	.	2g/	.	12ff\L	.
.	.	.	.	.	.	12gg\	.
.	.	.	.	.	.	12ee\J	.
.	.	.	.	.	.	12ff\L	.
.	.	.	.	.	.	12gg\	.
.	.	.	.	.	.	12ee\J	.
.	.	[4f\	.	[4a/	.	12gg\L	.
.	.	.	.	.	.	12aa\	.
.	.	.	.	.	.	12ff\J)	.
=237	=237	=237	=237	=237	=237	=237	=237
1C_	.	4f\]	.	4a/]	.	(12gg\L	.
.	.	.	.	.	.	12aa\	.
.	.	.	.	.	.	12gg\J	.
.	.	2g\	.	2b-\	.	12aa\L	.
.	.	.	.	.	.	12bb-\	.
.	.	.	.	.	.	12gg\J	.
.	.	.	.	.	.	12aa\L	.
.	.	.	.	.	.	12bb-\	.
.	.	.	.	.	.	12gg\J	.
.	.	[4a\	.	[4cc\	.	12bb-\L	.
.	.	.	.	.	.	12ccc\	.
.	.	.	.	.	.	12aa\J	.
=238	=238	=238	=238	=238	=238	=238	=238
1C_	.	4a\]	.	(4cc\]	.	12bb-\L	.
.	.	.	.	.	.	12ccc\	.
.	.	.	.	.	.	12aa\J	.
.	.	(4B-/	.	4dd\	.	12ccc\L	.
.	.	.	.	.	.	12ddd\	.
.	.	.	.	.	.	12bb-\J	.
.	.	4c\	.	4ee\	.	12ddd\L	.
.	.	.	.	.	.	12eee\	.
.	.	.	.	.	.	12ccc\J	.
.	.	4d\	.	4ff\	.	12eee\L	.
.	.	.	.	.	.	12fff\	.
.	.	.	.	.	.	12ddd\J	.
=239	=239	=239	=239	=239	=239	=239	=239
2C/]	.	(4e\)	.	(4gg\)	.	12fff\L	.
.	.	.	.	.	.	12ggg\	.
.	.	.	.	.	.	12eee\J	.
.	.	4f\	.	4aa\	.	12ggg\L	.
.	.	.	.	.	.	12aaa\	.
.	.	.	.	.	.	12fff\J	.
4c\	.	4g\	.	4bb-\	.	12aaa\L	.
.	.	.	.	.	.	12bbb-\	.
.	.	.	.	.	.	12ggg\J	.
4c\	.	4e\)	.	4g/) 4b-/	.	12aaa\L	.
.	.	.	.	.	.	12bbb-\	.
.	.	.	.	.	.	12ggg\J)	.
=240	=240	=240	=240	=240	=240	=240	=240
4c\	.	4e\	.	4g/ 4b-/	.	1bbb-	.
4r	.	4r	.	4r	.	.	.
2r	.	2r	.	2r	.	.	.
=241	=241	=241	=241	=241	=241	=241	=241
1r	.	1r	.	1r	.	1bbbn	.
=242	=242	=242	=242	=242	=242	=242	=242
2.A\	.	2.a\	.	2.cc\ 2.ff\	.	2.cccc\	.
(4A\	.	[4f\	.	(4c/	.	(4f/	.
=243	=243	=243	=243	=243	=243	=243	=243
8B-'\)	.	8f\]	.	4d/)	.	8dd\)	.
8r	.	8r	.	.	.	8r	.
8d'\	.	8f\	.	4r	.	8b-\	.
8r	.	8r	.	.	.	8r	.
2c\	.	2f\	.	4r	.	(2a/	.
.	.	.	.	(4f/	.	.	.
=244	=244	=244	=244	=244	=244	=244	=244
1r	.	8dd\	.	8b-\)	.	8ff\)	.
.	.	8r	.	8r	.	8r	.
.	.	8b-\	.	8dd\	.	8ff\	.
.	.	8r	.	8r	.	8r	.
.	.	2a\	.	4cc\	.	(2ff\	.
.	.	.	.	[4f/	.	.	.
=245	=245	=245	=245	=245	=245	=245	=245
8B-\	.	2r	.	8f/]	.	8dd\)	.
8r	.	.	.	8r	.	8r	.
8d\	.	.	.	8f/	.	8b-\	.
8r	.	.	.	8r	.	8r	.
(2d\	.	(2f\	.	2a-/	.	(2bn\	.
=246	=246	=246	=246	=246	=246	=246	=246
2c#\	.	2e\	.	1g 1b-	.	2ee\	.
2e\)	.	2g\)	.	.	.	2cc#\)	.
=247	=247	=247	=247	=247	=247	=247	=247
8d#\	.	8f#\	.	4r	.	8ff#\	.
8r	.	8r	.	.	.	8r	.
8f#\	.	8g\	.	8cc\	.	8dd#\	.
8r	.	8r	.	8r	.	8r	.
(2fn\	.	2a-\	.	(2bn\	.	(2ddn\	.
=248	=248	=248	=248	=248	=248	=248	=248
8e\)	.	8b-\	.	8g/)	.	8gg\)	.
8r	.	8r	.	8r	.	8r	.
8g\	.	8b-\	.	8cc#\	.	8ee\	.
8r	.	8r	.	8r	.	8r	.
[2f#\	.	[2cc\	.	[2a/	.	(2dd#\	.
=249	=249	=249	=249	=249	=249	=249	=249
8f#\]	.	8cc\]	.	8a/]	.	8aa\)	.
8r	.	8r	.	8r	.	8r	.
*clefC4	*clefG2	*	*	*	*	*	*
8a\	.	8cc\	.	4r	.	8ff#\	.
8r	.	8r	.	.	.	8r	.
8g#\	.	8dd\	.	8ff\	.	8bb-\	.
8r	.	8r	.	8r	.	8r	.
8b-\	.	8dd\	.	8ff\	.	8gg#\	.
8r	.	8r	.	8r	.	8r	.
=250	=250	=250	=250	=250	=250	=250	=250
[1g#	.	[1bn	.	[1dd [1ff	.	[1fff	.
=251	=251	=251	=251	=251	=251	=251	=251
1g#]	.	1b]	.	1dd] 1ff]	.	(2.fff\]	.
.	.	.	.	.	.	8eee\L	.
.	.	.	.	.	.	8ddd\J)	.
=252	=252	=252	=252	=252	=252	=252	=252
1a	.	[1a	.	[1cc	.	[1ccc	.
=253	=253	=253	=253	=253	=253	=253	=253
*clefF4	*clefF4	*	*	*	*	*	*
4CC/	.	4a\]	.	4cc\]	.	4ccc\]	.
8DD'/L	.	8g'\L	.	8b-'/L	.	8bb-'\L	.
8EE'/J	.	8f'\J	.	8a'/J	.	8aa'\	.
(8FF/L	.	(8e\L	.	(8g/L	.	(8gg\	.
8GG/)	.	8d\)	.	8f/)	.	8ff\)	.
8AA'/	.	8c'\	.	8e'/	.	8ee'\	.
8BB-'/J	.	8B-'\J	.	8d'/J	.	8dd'\J	.
=254	=254	=254	=254	=254	=254	=254	=254
(4C/	.	2A/	.	2c/	.	4cc\	.
4D\	.	.	.	.	.	8b-'\L	.
.	.	.	.	.	.	8a'/	.
4E\	.	2A/	.	2c/	.	(8g/	.
.	.	.	.	.	.	8f/)	.
4F\)	.	.	.	.	.	8e'/	.
.	.	.	.	.	.	8d'/J	.
=255	=255	=255	=255	=255	=255	=255	=255
(2.C/	.	4A/	.	8c/L	.	8c/L	.
.	.	.	.	8A/	.	8c/	.
.	.	4r	.	8A/	.	8c/	.
.	.	.	.	8A/J	.	8c/	.
.	.	2r	.	8A/L	.	8c/	.
.	.	.	.	8A/	.	8c/	.
8D/L	.	.	.	8A/	.	8c/	.
8C/J	.	.	.	8A/J	.	8c/J	.
=256	=256	=256	=256	=256	=256	=256	=256
8BB-/L	.	1r	.	8A/L	.	8c/L	.
8C/)	.	.	.	8A/	.	8c/	.
8AA'/	.	.	.	8A/	.	8c/	.
8GG'/J	.	.	.	8A/J	.	8c/J	.
(4FF/	.	.	.	2A/	.	2c/	.
4D\	.	.	.	.	.	.	.
=257	=257	=257	=257	=257	=257	=257	=257
1C)	.	1r	.	2A/	.	2c/	.
.	.	.	.	2A/	.	2c/	.
=258	=258	=258	=258	=258	=258	=258	=258
(4D\	.	1r	.	2A/	.	2c/	.
4E\	.	.	.	.	.	.	.
4F\	.	.	.	2A/	.	2c/	.
4G\)	.	.	.	.	.	.	.
=259	=259	=259	=259	=259	=259	=259	=259
(2.F\	.	1r	.	2A/	.	2c/	.
.	.	.	.	2A/	.	2c/	.
8E\L	.	.	.	.	.	.	.
8D\J)	.	.	.	.	.	.	.
=260	=260	=260	=260	=260	=260	=260	=260
(8C\L	.	1r	.	2A/	.	2c/	.
8D\)	.	.	.	.	.	.	.
8E'\	.	.	.	.	.	.	.
8F'\J	.	.	.	.	.	.	.
(4G'\	.	.	.	2B-/	.	2c/	.
4A'\)	.	.	.	.	.	.	.
=261	=261	=261	=261	=261	=261	=261	=261
1G	.	8r	.	8B-/L	.	8c/L	.
.	.	8B-/L	.	8c/	.	8d/	.
.	.	8B-/	.	8c/	.	8e/	.
.	.	8B-/J	.	8c/J	.	8f/J	.
.	.	2B-/	.	2c/	.	8g/L	.
.	.	.	.	.	.	8a/	.
.	.	.	.	.	.	8b-/	.
.	.	.	.	.	.	8cc/J	.
=262	=262	=262	=262	=262	=262	=262	=262
2G\	.	2B-/	.	2c/	.	(4dd\	.
.	.	.	.	.	.	4ee\	.
2G\	.	2B-/	.	2c/	.	4ff\	.
.	.	.	.	.	.	4gg\)	.
=263	=263	=263	=263	=263	=263	=263	=263
2G\	.	2B-/	.	2c/	.	(2.ff\	.
2G\	.	2B-/	.	2c/	.	.	.
.	.	.	.	.	.	8ee\L	.
.	.	.	.	.	.	8dd\J)	.
=264	=264	=264	=264	=264	=264	=264	=264
2G\	.	2B-/	.	2c/	.	(8cc\L	.
.	.	.	.	.	.	8dd\)	.
.	.	.	.	.	.	8ee\	.
.	.	.	.	.	.	8ff\J	.
2G\	.	2B-/	.	2c/ 2e/	.	(4gg\	.
.	.	.	.	.	.	4aa\)	.
=265	=265	=265	=265	=265	=265	=265	=265
2G\	.	2B-/	.	2c/ 2e/	.	1gg	.
2G\	.	2B-/	.	2c/ 2e/	.	.	.
=266	=266	=266	=266	=266	=266	=266	=266
2G\	.	2B-/	.	2c/ 2e/	.	(4gg\	.
.	.	.	.	.	.	4aa-\	.
2G\	.	2B-/	.	2c/ 2e/	.	4bb-\	.
.	.	.	.	.	.	4ccc\)	.
=267	=267	=267	=267	=267	=267	=267	=267
2G\	.	2B-/	.	2c/ 2e/	.	(2.bb-\	.
2G\	.	2B-/	.	2c/ 2e/	.	.	.
.	.	.	.	.	.	8aa-\L	.
.	.	.	.	.	.	8gg\J)	.
=268	=268	=268	=268	=268	=268	=268	=268
2G\	.	2B-/	.	2c/ 2e/	.	(8ff\L	.
.	.	.	.	.	.	8gg\)	.
.	.	.	.	.	.	8aa-\	.
.	.	.	.	.	.	8bb-\J	.
2G\	.	2B-/	.	2c/ 2e/	.	(4ccc\	.
.	.	.	.	.	.	4ddd-\)	.
=269	=269	=269	=269	=269	=269	=269	=269
2G-\	.	2A/	.	2c/ 2e-/	.	1ccc	.
2G-\	.	2A/	.	2c/ 2e-/	.	.	.
=270	=270	=270	=270	=270	=270	=270	=270
2G-\	.	2A/	.	2c/ 2e-/	.	(4ccc\	.
.	.	.	.	.	.	4ddd-\	.
2G-\	.	2A/	.	2c/ 2e-/	.	4eee-\	.
.	.	.	.	.	.	4fff\)	.
=271	=271	=271	=271	=271	=271	=271	=271
2G-\	.	2A/	.	2c/ 2e-/	.	2.eee-\	.
2G-\	.	2A/	.	2c/ 2e-/	.	.	.
.	.	.	.	.	.	8eee-\L	.
.	.	.	.	.	.	8ddd-\J	.
=272	=272	=272	=272	=272	=272	=272	=272
2G-\	.	2A/	.	2c/ 2e-/	.	(8ccc\L	.
.	.	.	.	.	.	8ddd\)	.
.	.	.	.	.	.	8eee-'\	.
.	.	.	.	.	.	8fff'\J	.
2G-\	.	2A/	.	2c/ 2e-/	.	4eee-'\	.
.	.	.	.	.	.	8eee-'\L	.
.	.	.	.	.	.	8ddd'\J	.
=273	=273	=273	=273	=273	=273	=273	=273
2G-\	.	2A-/	.	2c/ 2e-/	.	(8ccc\L	.
.	.	.	.	.	.	8ddd-\)	.
.	.	.	.	.	.	8eee-'\	.
.	.	.	.	.	.	8fff'\J	.
2G-\	.	2A-/	.	2c/ 2e-/	.	4eee-'\	.
.	.	.	.	.	.	8eee-'\L	.
.	.	.	.	.	.	8ddd-'\J	.
=274	=274	=274	=274	=274	=274	=274	=274
2G-\	.	2A-/	.	2c/ 2e-/	.	(8eee-\L	.
.	.	.	.	.	.	8fff-\)	.
.	.	.	.	.	.	8ggg-'\	.
.	.	.	.	.	.	8aaa-'\J	.
2G-\	.	2A-/	.	2c/ 2e-/	.	4ggg-'\	.
.	.	.	.	.	.	8fff'\L	.
.	.	.	.	.	.	8eee-'\J	.
=275	=275	=275	=275	=275	=275	=275	=275
2G-\	.	2A-/	.	2c/ 2e-/	.	(8ddd-\L	.
.	.	.	.	.	.	8ccc\)	.
.	.	.	.	.	.	8bb-'\	.
.	.	.	.	.	.	8aa-'\J	.
2G-\	.	2A-/	.	2c/ 2e-/	.	4gg-'\	.
.	.	.	.	.	.	8ff'\L	.
.	.	.	.	.	.	8ee-'\J	.
=276	=276	=276	=276	=276	=276	=276	=276
2G-\	.	2A-/	.	2c/ 2e-/	.	(8dd-\L	.
.	.	.	.	.	.	8cc\)	.
.	.	.	.	.	.	8b-'\	.
.	.	.	.	.	.	8a-'/J	.
4G-\	.	4A-/	.	2c/ [2e-/	.	[2g-/	.
4r	.	8f'\L	.	.	.	.	.
.	.	8e-'\J	.	.	.	.	.
=277	=277	=277	=277	=277	=277	=277	=277
2r	.	(8d-\L	.	[1c 1e-_	.	1g-_	.
.	.	8c\)	.	.	.	.	.
.	.	8B-'\	.	.	.	.	.
.	.	8A-'\J	.	.	.	.	.
4r	.	4G-/	.	.	.	.	.
8F'\L	.	4r	.	.	.	.	.
8E-'\J	.	.	.	.	.	.	.
=278	=278	=278	=278	=278	=278	=278	=278
(8D-/L	.	2r	.	2.c/] 2.e-/]	.	2g-/]	.
8C/)	.	.	.	.	.	.	.
8BB-'/	.	.	.	.	.	.	.
8AA-'/J	.	.	.	.	.	.	.
(4AA-/	.	4r	.	.	.	2a-/	.
4GG-/)	.	(4c\	.	4e-/	.	.	.
=279	=279	=279	=279	=279	=279	=279	=279
4FF/	.	4d-\)	.	(2.f/	.	(2.a-/	.
4r	.	4r	.	.	.	.	.
2r	.	2r	.	.	.	.	.
.	.	.	.	8g-/L	.	8b-\L	.
.	.	.	.	8f/J	.	8a-/J	.
=280	=280	=280	=280	=280	=280	=280	=280
1r	.	1r	.	8e-/L	.	8g-/L	.
.	.	.	.	8f/	.	8a-/	.
.	.	.	.	8d-/	.	8f/	.
.	.	.	.	8A-/J	.	8e-/J	.
.	.	.	.	8d-/L	.	8f/L	.
.	.	.	.	8A-/	.	8e-/	.
.	.	.	.	8f/	.	8d-/	.
.	.	.	.	8c/J	.	8e-/J	.
=281	=281	=281	=281	=281	=281	=281	=281
1r	.	1r	.	8d-/L	.	8f/L	.
.	.	.	.	8e-/	.	8g-/	.
.	.	.	.	8f/	.	8a-/	.
.	.	.	.	8g-/J	.	8b-\J	.
.	.	.	.	8f/L	.	8a-\L	.
.	.	.	.	8g-/	.	8b-\	.
.	.	.	.	8e-/	.	8cc\	.
.	.	.	.	8f/J	.	8dd-\J	.
=282	=282	=282	=282	=282	=282	=282	=282
1r	.	1r	.	8e-/L	.	8cc\L	.
.	.	.	.	8g-/)	.	8ee-\)	.
.	.	.	.	8e-'/	.	8g-'/	.
.	.	.	.	8e-'/J	.	8g-'/J	.
.	.	.	.	(8e-/L	.	(8g-/L	.
.	.	.	.	8f/)	.	8a-/)	.
.	.	.	.	8c'/	.	8e-'/	.
.	.	.	.	8c'/J	.	8e-'/J	.
=283	=283	=283	=283	=283	=283	=283	=283
(2.F\	.	(2.A-/	.	4d-/	.	4f/	.
.	.	.	.	4r	.	4r	.
.	.	.	.	2r	.	2r	.
8G-\L	.	8B-/L	.	.	.	.	.
8F\J	.	8A-/J	.	.	.	.	.
=284	=284	=284	=284	=284	=284	=284	=284
8E-/L	.	8G-/L	.	1r	.	1r	.
8F/	.	8A-/	.	.	.	.	.
8D-/	.	8F/	.	.	.	.	.
8AA-/J	.	8E-/J	.	.	.	.	.
8D-/L	.	8F/L	.	.	.	.	.
8AA-/	.	8E-/	.	.	.	.	.
8FF/	.	8D-/	.	.	.	.	.
8AA-/J	.	8E-/J	.	.	.	.	.
=285	=285	=285	=285	=285	=285	=285	=285
8D-\L	.	8F/L	.	1r	.	1r	.
8E-\	.	8G-/	.	.	.	.	.
8F\	.	8A-/	.	.	.	.	.
8G-\J	.	8B-/J	.	.	.	.	.
8F\L	.	8A-/L	.	.	.	.	.
8G-\	.	8B-/	.	.	.	.	.
8E-\	.	8c/	.	.	.	.	.
8F\J)	.	8d-/J)	.	.	.	.	.
=286	=286	=286	=286	=286	=286	=286	=286
(8E-\L	.	(8c/L	.	1r	.	1r	.
8G-\)	.	8e-/)	.	.	.	.	.
8E-'\	.	8G-'/	.	.	.	.	.
8E-'\J	.	8G-'/J	.	.	.	.	.
(8E-\L	.	(8G-/L	.	.	.	.	.
8F\)	.	8A-/)	.	.	.	.	.
8C'\	.	8E-'/	.	.	.	.	.
8C'\J	.	8E-'/J	.	.	.	.	.
=287	=287	=287	=287	=287	=287	=287	=287
[1D-	.	[1F	.	8r	.	8r	.
.	.	.	.	8b-'/L	.	8dd-'/L	.
.	.	.	.	8d-'/	.	8f'/	.
.	.	.	.	8d-'/J	.	8f'/J	.
.	.	.	.	(8d-/L	.	(8f/L	.
.	.	.	.	8e-/)	.	8g-/)	.
.	.	.	.	8B-/	.	8d-/	.
.	.	.	.	8B-/J	.	8d-/J	.
=288	=288	=288	=288	=288	=288	=288	=288
8D-\L]	.	8F/L]	.	4c/	.	4e-/	.
8E-\	.	8c/	.	.	.	.	.
8C\	.	8E-/	.	4r	.	4r	.
8C\J	.	8E-/J	.	.	.	.	.
8C/L	.	8E-/L	.	2r	.	2r	.
8D-/	.	8F/	.	.	.	.	.
8AA/	.	8C/	.	.	.	.	.
8AA/J	.	8C/J	.	.	.	.	.
=289	=289	=289	=289	=289	=289	=289	=289
[1BB-	.	[1D-	.	8r	.	8r	.
.	.	.	.	8b-'/L	.	8dd-'/L	.
.	.	.	.	8d-'/	.	8f'/	.
.	.	.	.	8d-'/J	.	8f'/J	.
.	.	.	.	(8d-/L	.	(8f/L	.
.	.	.	.	8f/)	.	8b-/)	.
.	.	.	.	8f'/	.	8b-'/	.
.	.	.	.	8f'/J	.	8b-'/J	.
=290	=290	=290	=290	=290	=290	=290	=290
(8BB-/L]	.	(8D-/L]	.	4e/	.	4b-\	.
8GG/)	.	8C/)	.	.	.	.	.
8GG'/	.	8C'/	.	4r	.	4r	.
8GG'/J	.	8C'/J	.	.	.	.	.
(8GG/L	.	(8C/L	.	2r	.	2r	.
8BB-/)	.	8D-/)	.	.	.	.	.
8BB-'/	.	8D-'/	.	.	.	.	.
8BB-'/J	.	8D-'/J	.	.	.	.	.
=291	=291	=291	=291	=291	=291	=291	=291
[1BB-	.	[1D-	.	8r	.	8r	.
.	.	.	.	8b-'/L	.	8dd-'/L	.
.	.	.	.	8d-'/	.	8f'/	.
.	.	.	.	8d-'/J	.	8f'/J	.
.	.	.	.	(8d-/L	.	(8f/L	.
.	.	.	.	8f/)	.	8b-/)	.
.	.	.	.	8f'/	.	8b-'/	.
.	.	.	.	8f'/J	.	8b-'/J	.
=292	=292	=292	=292	=292	=292	=292	=292
(8BB-/L]	.	(8D-/L]	.	4e/	.	4b-\	.
8GG/)	.	8C/)	.	.	.	.	.
8GG'/	.	8C'/	.	4r	.	4r	.
8GG'/J	.	8C'/J	.	.	.	.	.
(8GG/L	.	(8C/L	.	4r	.	4r	.
8BB-/)	.	8D-/)	.	.	.	.	.
8BB-'/	.	8D-'/	.	8f/L	.	8b-\L	.
8BB-'/J	.	8D-'/J	.	8f/J	.	8b-\J	.
=293	=293	=293	=293	=293	=293	=293	=293
(8BB-/L	.	(8D-/L	.	4e/	.	4b-\	.
8GG/)	.	8C/)	.	.	.	.	.
8BB-'/	.	8D-'/	.	8f/L	.	8b-\L	.
8BB-'/J	.	8D-'/J	.	8f/J	.	8b-\J	.
(8BB-/L	.	(8D-/L	.	4e/	.	4b-\	.
8GG/)	.	8C/)	.	.	.	.	.
8BB-'/	.	8D-'/	.	8f/L	.	8b-\L	.
8BB-'/J	.	8D-'/J	.	8f/J	.	8b-\J	.
=294	=294	=294	=294	=294	=294	=294	=294
(8BB-/L	.	(8D-/L	.	4e/	.	4b-\	.
8GG/)	.	8C/)	.	.	.	.	.
8GG'/	.	8C'/	.	8g/L	.	8b-\L	.
8EE'/J	.	8C'/J	.	8g/J	.	8b-\J	.
8AA-'/L	.	8C'/L	.	8f/L	.	8a-/L	.
8FF'/	.	8C'/	.	8f/	.	8a-/	.
8DD'/	.	8C'/	.	8f/	.	8bn/	.
8GG'/J	.	8C'/J	.	8f/J	.	8b/J	.
=295	=295	=295	=295	=295	=295	=295	=295
2CC/	.	2C/	.	4e/	.	4cc\	.
.	.	.	.	4r	.	4r	.
(12DD/L	.	(12D/L	.	2r	.	2r	.
12EE/	.	12E/	.	.	.	.	.
12FF/J	.	12F/J	.	.	.	.	.
12GG/L	.	12G/L	.	.	.	.	.
12AA/	.	12A/	.	.	.	.	.
12BBn/J)	.	12Bn/J)	.	.	.	.	.
=296	=296	=296	=296	=296	=296	=296	=296
2C/	.	2c\	.	1r	.	1r	.
(12D/L	.	(12d\L	.	.	.	.	.
12C/	.	12c\	.	.	.	.	.
12BBn/J	.	12Bn\J	.	.	.	.	.
12E\L	.	12e\L	.	.	.	.	.
12D\	.	12d\	.	.	.	.	.
12C\J)	.	12c\J)	.	.	.	.	.
=297	=297	=297	=297	=297	=297	=297	=297
2F\	.	2f\	.	1r	.	1r	.
(12E\L	.	(12e\L	.	.	.	.	.
12D\	.	12d\	.	.	.	.	.
12C\J	.	12c\J	.	.	.	.	.
12BBn/L	.	12Bn/L	.	.	.	.	.
12AA/	.	12A/	.	.	.	.	.
12GG/J)	.	12G/J)	.	.	.	.	.
=298	=298	=298	=298	=298	=298	=298	=298
8FF/	.	8F/	.	1r	.	1r	.
8r	.	8r	.	.	.	.	.
8EE/	.	8E/	.	.	.	.	.
8r	.	8r	.	.	.	.	.
8DD/	.	8D/	.	.	.	.	.
8r	.	8r	.	.	.	.	.
8GG/	.	8G/	.	.	.	.	.
8r	.	8r	.	.	.	.	.
=299	=299	=299	=299	=299	=299	=299	=299
4CC/	.	4C/	.	4r	.	1r	.
4r	.	4r	.	8c/	.	.	.
.	.	.	.	8r	.	.	.
2r	.	2r	.	8e/	.	.	.
.	.	.	.	8r	.	.	.
.	.	.	.	8g/	.	.	.
.	.	.	.	8r	.	.	.
=300	=300	=300	=300	=300	=300	=300	=300
1f	.	1a-	.	[1cc	.	8dd\	.
.	.	.	.	.	.	8r	.
.	.	.	.	.	.	8ff-\	.
.	.	.	.	.	.	8r	.
.	.	.	.	.	.	8aa-\	.
.	.	.	.	.	.	8r	.
.	.	.	.	.	.	8bbn\	.
.	.	.	.	.	.	8r	.
=301	=301	=301	=301	=301	=301	=301	=301
1e	.	1g	.	4cc\]	.	1ccc	.
.	.	.	.	(4cc\	.	.	.
.	.	.	.	4bn\	.	.	.
.	.	.	.	4cc\)	.	.	.
=302	=302	=302	=302	=302	=302	=302	=302
1e-	.	1f#	.	[1cc	.	8cc\	.
.	.	.	.	.	.	8r	.
.	.	.	.	.	.	8ee-\	.
.	.	.	.	.	.	8r	.
.	.	.	.	.	.	8ff#\	.
.	.	.	.	.	.	8r	.
.	.	.	.	.	.	8aa\	.
.	.	.	.	.	.	8r	.
=303	=303	=303	=303	=303	=303	=303	=303
1d	.	1f	.	4cc\]	.	1bb-	.
.	.	.	.	4cc\	.	.	.
.	.	.	.	4bn\	.	.	.
.	.	.	.	4cc\	.	.	.
=304	=304	=304	=304	=304	=304	=304	=304
1d-	.	[1f	.	[1cc	.	8b-\	.
.	.	.	.	.	.	8r	.
.	.	.	.	.	.	8dd-\	.
.	.	.	.	.	.	8r	.
.	.	.	.	.	.	8ee\	.
.	.	.	.	.	.	8r	.
.	.	.	.	.	.	8gg\	.
.	.	.	.	.	.	8r	.
=305	=305	=305	=305	=305	=305	=305	=305
1c	.	4f\]	.	2.f/ 2.cc/]	.	[2aa\	.
.	.	(4cc\	.	.	.	.	.
.	.	4bn\	.	.	.	12aa\L]	.
.	.	.	.	.	.	12ff\	.
.	.	.	.	.	.	12cc\J	.
.	.	4cc\)	.	4A/	.	12a/L	.
.	.	.	.	.	.	12f/	.
.	.	.	.	.	.	12c/J	.
=306	=306	=306	=306	=306	=306	=306	=306
(2.C/	.	(4cc\	.	[2G/	.	12B-/L	.
.	.	.	.	.	.	12c/	.
.	.	.	.	.	.	12e/J	.
.	.	4dd\	.	.	.	12G/L	.
.	.	.	.	.	.	12B-/	.
.	.	.	.	.	.	12e/J	.
.	.	4cc\	.	8G/L]	.	12G/L	.
.	.	.	.	.	.	12B-/	.
.	.	.	.	(8e/	.	.	.
.	.	.	.	.	.	12e/J	.
8D\L	.	4b-\)	.	8f/	.	12G/L	.
.	.	.	.	.	.	12B-/	.
8E\J)	.	.	.	8g/J)	.	.	.
.	.	.	.	.	.	12e/J	.
=307	=307	=307	=307	=307	=307	=307	=307
[1F	.	2.a\	.	4c/	.	12A/L	.
.	.	.	.	.	.	12c/	.
.	.	.	.	.	.	12f/J	.
.	.	.	.	4r	.	12e/L	.
.	.	.	.	.	.	12f/	.
.	.	.	.	.	.	12c/J	.
.	.	.	.	2r	.	12A/L	.
.	.	.	.	.	.	12c/	.
.	.	.	.	.	.	12f/J	.
.	.	(4g\	.	.	.	12B-/L	.
.	.	.	.	.	.	12c/	.
.	.	.	.	.	.	12e/J	.
=308	=308	=308	=308	=308	=308	=308	=308
(2.F\]	.	4.f\	.	1r	.	12A/L	.
.	.	.	.	.	.	12c/	.
.	.	.	.	.	.	12f/J	.
.	.	.	.	.	.	12B-/L	.
.	.	.	.	.	.	12c/	.
.	.	8g\	.	.	.	.	.
.	.	.	.	.	.	12e/J	.
.	.	4a\	.	.	.	12A/L	.
.	.	.	.	.	.	12c/	.
.	.	.	.	.	.	12f/J	.
8G\L	.	8b-\L	.	.	.	12f/L	.
.	.	.	.	.	.	12f/	.
8A\J)	.	8cc\J)	.	.	.	.	.
.	.	.	.	.	.	12f/J	.
=309	=309	=309	=309	=309	=309	=309	=309
4B-\	.	(4..dd\	.	1r	.	12f/L	.
.	.	.	.	.	.	12b-/	.
.	.	.	.	.	.	12dd/J	.
4A\	.	.	.	.	.	12f/L	.
.	.	.	.	.	.	12b-/	.
.	.	.	.	.	.	12dd/J	.
.	.	16ee\)	.	.	.	.	.
4G\	.	2ee\	.	.	.	12g/L	.
.	.	.	.	.	.	12b-/	.
.	.	.	.	.	.	12cc/J	.
4c\	.	.	.	.	.	12g/L	.
.	.	.	.	.	.	12b-/	.
.	.	.	.	.	.	12cc/J	.
=310	=310	=310	=310	=310	=310	=310	=310
4F\	.	(4ff\	.	4r	.	12a\L	.
.	.	.	.	.	.	12cc\	.
.	.	.	.	.	.	12ff\J	.
4B-\	.	4dd\	.	(4ddd\	.	12b-\L	.
.	.	.	.	.	.	12ff\	.
.	.	.	.	.	.	12b-\J	.
4c\	.	4cc\	.	4ccc\	.	12ff\L	.
.	.	.	.	.	.	12a\	.
.	.	.	.	.	.	12ff\J	.
4e\	.	4b-\	.	4bb-\	.	12cc/L	.
.	.	.	.	.	.	12g/	.
.	.	.	.	.	.	12cc/J	.
=311	=311	=311	=311	=311	=311	=311	=311
[1f	.	2.a\	.	(2.aa\)	.	12cc/L	.
.	.	.	.	.	.	12A/	.
.	.	.	.	.	.	12c/J	.
.	.	.	.	.	.	12f/L	.
.	.	.	.	.	.	12a/	.
.	.	.	.	.	.	12cc/J	.
.	.	.	.	.	.	12ff\L	.
.	.	.	.	.	.	12cc\	.
.	.	.	.	.	.	12a\J	.
.	.	4g\)	.	4gg\)	.	12b-\L	.
.	.	.	.	.	.	12cc\	.
.	.	.	.	.	.	12ee\J	.
=312	=312	=312	=312	=312	=312	=312	=312
(2.f\]	.	(4a\	.	(4ff\	.	(12ff\L	.
.	.	.	.	.	.	12gg\	.
.	.	.	.	.	.	12ff\J	.
.	.	8cc\L	.	8ee\L	.	12ee\L	.
.	.	.	.	.	.	12ff\	.
.	.	8b-\J	.	8dd\J	.	.	.
.	.	.	.	.	.	12gg\J	.
.	.	4a\	.	4cc\	.	16aa\LL	.
.	.	.	.	.	.	16bb-\	.
.	.	.	.	.	.	16aa\	.
.	.	.	.	.	.	16gg\JJ	.
8g\L	.	8g\L	.	8b-/L	.	12aa\L	.
.	.	.	.	.	.	12bb-\	.
8a\J)	.	8f\J)	.	8a/J)	.	.	.
.	.	.	.	.	.	12ccc\J)	.
=313	=313	=313	=313	=313	=313	=313	=313
*clefC4	*clefG2	*	*	*	*	*	*
(12b-'\L	.	(4B-/	.	(4..ff\	.	(4..ddd\	.
12cc\	.	.	.	.	.	.	.
12dd\J	.	.	.	.	.	.	.
12cc\L	.	4G/	.	.	.	.	.
12b-\	.	.	.	.	.	.	.
12a\J	.	.	.	.	.	.	.
.	.	.	.	16gg\)	.	16eee\)	.
12g\L	.	4C/	.	2gg\	.	2eee\	.
12a\	.	.	.	.	.	.	.
12b-\J	.	.	.	.	.	.	.
12cc\L	.	4c\)	.	.	.	.	.
12b-\	.	.	.	.	.	.	.
12cc\J)	.	.	.	.	.	.	.
=314	=314	=314	=314	=314	=314	=314	=314
.	.	.	.	ffq/LL	.	dddq/LL	.
.	.	.	.	ggq/JJ	.	eeeq/JJ	.
(4a\	.	4F/	.	4aa\	.	(4.fff\	.
4b-\	.	(4g\	.	4r	.	.	.
.	.	.	.	.	.	16eee\LL	.
.	.	.	.	.	.	16ddd\JJ	.
4cc\	.	4a\	.	2r	.	8ccc\)	.
.	.	.	.	.	.	8r	.
4b-\)	.	4g\)	.	.	.	4ccc\	.
=315	=315	=315	=315	=315	=315	=315	=315
.	.	.	.	.	.	bbnq/LL	.
.	.	.	.	.	.	cccq/JJ	.
(4a\	.	(4f\	.	2r	.	(4.fff\	.
4b-\	.	4g\	.	.	.	.	.
.	.	.	.	.	.	16eee\LL	.
.	.	.	.	.	.	16ddd\JJ	.
4cc\	.	4a\	.	4r	.	8ccc\)	.
.	.	.	.	.	.	8r	.
4g\)	.	4b-\)	.	4cc\	.	4eee\	.
=316	=316	=316	=316	=316	=316	=316	=316
.	.	.	.	b-q/LL	.	dddq/LL	.
.	.	.	.	ccq/JJ	.	eeeq/JJ	.
(4f\	.	(4a\	.	(4.ff\	.	(4.aaa\	.
4g\	.	4b-\	.	.	.	.	.
.	.	.	.	16ee\LL	.	16ggg\LL	.
.	.	.	.	16dd\JJ	.	16fff\JJ	.
4a\	.	4cc\	.	8cc\)	.	8eee\)	.
.	.	.	.	8r	.	8r	.
4g\)	.	4b-\)	.	4cc\	.	4eee\	.
=317	=317	=317	=317	=317	=317	=317	=317
.	.	.	.	b-q/LL	.	dddq/LL	.
.	.	.	.	ccq/JJ	.	eeeq/JJ	.
(4f\	.	(4a\	.	(4.ff\	.	(4.aaa\	.
4g\	.	4b-\	.	.	.	.	.
.	.	.	.	16ee\LL	.	16ggg\LL	.
.	.	.	.	16dd\JJ	.	16fff\JJ	.
4a\	.	4cc\	.	8cc\)	.	8eee\)	.
.	.	.	.	8r	.	8r	.
4g\)	.	4b-\)	.	4cc\	.	4eee\	.
=318	=318	=318	=318	=318	=318	=318	=318
.	.	.	.	ddq/LL	.	dddq/LL	.
.	.	.	.	eeq/JJ	.	eeeq/JJ	.
(2f\	.	(2a\	.	[1ccc	.	4cccc\	.
.	.	.	.	.	.	8bbb-'\L	.
.	.	.	.	.	.	8aaa'\J	.
2g\	.	2b-\	.	.	.	(8aaa\L	.
.	.	.	.	.	.	8ggg\)	.
.	.	.	.	.	.	8fff'\	.
.	.	.	.	.	.	8eee'\J	.
=319	=319	=319	=319	=319	=319	=319	=319
2a\	.	2cc\	.	4ccc\]	.	(8ggg\L	.
.	.	.	.	.	.	8fff\)	.
.	.	.	.	8ccc'\L	.	8eee'\	.
.	.	.	.	8bb-'\J	.	8ddd'\J	.
2b-\)	.	2dd\)	.	(8bb-\L	.	(8ddd\L	.
.	.	.	.	8aa\)	.	8ccc\)	.
.	.	.	.	8gg'\	.	8bb-'\	.
.	.	.	.	8ff'\J	.	8aa'\J	.
=320	=320	=320	=320	=320	=320	=320	=320
4b-\	.	4g\	.	4g/	.	4gg\	.
4r	.	4r	.	4r	.	(12gg\L	.
.	.	.	.	.	.	12ff\	.
.	.	.	.	.	.	12ee\J	.
2r	.	2r	.	2r	.	12dd\L	.
.	.	.	.	.	.	12ee\	.
.	.	.	.	.	.	12cc\J	.
.	.	.	.	.	.	4ccc\)	.
=321	=321	=321	=321	=321	=321	=321	=321
*clefF4	*clefF4	*	*	*	*	*	*
4A\	.	4a\	.	4f/	.	4r	.
4r	.	4r	.	4r	.	(12ccc\L	.
.	.	.	.	.	.	12bb-\	.
.	.	.	.	.	.	12aa\J	.
2r	.	2r	.	2r	.	12gg\L	.
.	.	.	.	.	.	12aa\	.
.	.	.	.	.	.	12ff\J	.
.	.	.	.	.	.	4fff\)	.
=322	=322	=322	=322	=322	=322	=322	=322
4BB-/	.	4E/ 4G/	.	4c/	.	4r	.
4r	.	4r	.	4r	.	(12gg\L	.
.	.	.	.	.	.	12ff\	.
.	.	.	.	.	.	12ee\J	.
2r	.	2r	.	2r	.	12dd\L	.
.	.	.	.	.	.	12ee\	.
.	.	.	.	.	.	12cc\J	.
.	.	.	.	.	.	4ccc\)	.
=323	=323	=323	=323	=323	=323	=323	=323
4AA/	.	4F/ 4A/	.	4c/	.	4r	.
4r	.	4r	.	4r	.	(12cc\L	.
.	.	.	.	.	.	12b-\	.
.	.	.	.	.	.	12a\J	.
2r	.	4r	.	2r	.	12g/L	.
.	.	.	.	.	.	12a/	.
.	.	.	.	.	.	12f/J	.
.	.	(12f\L	.	.	.	4ff\)	.
.	.	12e\	.	.	.	.	.
.	.	12d\J	.	.	.	.	.
=324	=324	=324	=324	=324	=324	=324	=324
[1DD [1BBn	.	12c\L	.	4r	.	4ff\	.
.	.	12d\	.	.	.	.	.
.	.	12Bn\J	.	.	.	.	.
.	.	2G/)	.	(12f/L	.	4r	.
.	.	.	.	12e/	.	.	.
.	.	.	.	12d/J	.	.	.
.	.	.	.	12c/L	.	12ff\L	.
.	.	.	.	12d/	.	12bbn\	.
.	.	.	.	12Bn/J	.	12ddd\J	.
.	.	(12f\L	.	4G/)	.	4fff\	.
.	.	12e\	.	.	.	.	.
.	.	12d\J	.	.	.	.	.
=325	=325	=325	=325	=325	=325	=325	=325
1DD_ 1BB_	.	12c\L	.	4r	.	1r	.
.	.	12d\	.	.	.	.	.
.	.	12Bn\J	.	.	.	.	.
.	.	2G/)	.	(12f/L	.	.	.
.	.	.	.	12e/	.	.	.
.	.	.	.	12d/J	.	.	.
.	.	.	.	12c/L	.	.	.
.	.	.	.	12d/	.	.	.
.	.	.	.	12Bn/J	.	.	.
.	.	(12f\L	.	4G/)	.	.	.
.	.	12e\	.	.	.	.	.
.	.	12d\J	.	.	.	.	.
=326	=326	=326	=326	=326	=326	=326	=326
1DD_ 1BB_	.	12c\L	.	2r	.	1r	.
.	.	12d\	.	.	.	.	.
.	.	12Bn\J)	.	.	.	.	.
.	.	12G'/L	.	.	.	.	.
.	.	12B'/	.	.	.	.	.
.	.	12d'/J	.	.	.	.	.
.	.	12f'\L	.	4r	.	.	.
.	.	12g'\	.	.	.	.	.
.	.	12b-'\J	.	.	.	.	.
.	.	4r	.	12dd\L	.	.	.
.	.	.	.	12ff\	.	.	.
.	.	.	.	12gg\J	.	.	.
=327	=327	=327	=327	=327	=327	=327	=327
1DD] 1BB]	.	1r	.	12bbn\L	.	1r	.
.	.	.	.	12ddd\	.	.	.
.	.	.	.	12bb\J	.	.	.
.	.	.	.	12gg\L	.	.	.
.	.	.	.	12ff\	.	.	.
.	.	.	.	12dd\J	.	.	.
.	.	.	.	12bn/L	.	.	.
.	.	.	.	12g/	.	.	.
.	.	.	.	12f/J	.	.	.
.	.	.	.	12d/L	.	.	.
.	.	.	.	12g/	.	.	.
.	.	.	.	12f/J	.	.	.
=328	=328	=328	=328	=328	=328	=328	=328
[1CC [1BB-	.	1r	.	4e/	.	(12g/L	.
.	.	.	.	.	.	12f/	.
.	.	.	.	.	.	12e/J	.
.	.	.	.	4r	.	12d/L	.
.	.	.	.	.	.	12e/	.
.	.	.	.	.	.	12c/J)	.
.	.	.	.	2r	.	12e'/L	.
.	.	.	.	.	.	12g'/	.
.	.	.	.	.	.	12b-'/J	.
.	.	.	.	.	.	12cc'\L	.
.	.	.	.	.	.	12ee'\	.
.	.	.	.	.	.	12gg'\J	.
=329	=329	=329	=329	=329	=329	=329	=329
1CC] 1BB-]	.	1r	.	1r	.	12bb-'\L	.
.	.	.	.	.	.	12gg'\	.
.	.	.	.	.	.	12ee'\J	.
.	.	.	.	.	.	12cc'/L	.
.	.	.	.	.	.	12b-'/	.
.	.	.	.	.	.	12g'/J	.
.	.	.	.	.	.	12e'/L	.
.	.	.	.	.	.	12c'/	.
.	.	.	.	.	.	12B-'/J	.
.	.	.	.	.	.	12G'/L	.
.	.	.	.	.	.	12c'/	.
.	.	.	.	.	.	12B-'/J	.
=330	=330	=330	=330	=330	=330	=330	=330
(12C/L	.	(12c/L	.	2r	.	4A/	.
12BB-/	.	12B-/	.	.	.	.	.
12AA/J	.	12A/J	.	.	.	.	.
12GG/L	.	12G/L	.	.	.	4r	.
12AA/	.	12A/	.	.	.	.	.
12FF/J)	.	12F/J)	.	.	.	.	.
12AA'/L	.	12A'\L	.	4r	.	4r	.
12C'/	.	12c'\	.	.	.	.	.
12F'/J	.	12f'\J	.	.	.	.	.
12C'\L	.	12c'\L	.	(12cc\L	.	(12ccc\L	.
12F'\	.	12f'\	.	12b-\	.	12bb-\	.
12A'\J	.	12a'\J	.	12a\J	.	12aa\J	.
=331	=331	=331	=331	=331	=331	=331	=331
12F\L	.	12f\L	.	12g/L	.	12gg\L	.
12A\	.	12a\	.	12a/	.	12aa\	.
12c\J	.	12cc\J	.	12f/J)	.	12ff\J)	.
12A\L	.	12a\L	.	12a'\L	.	12aa'\L	.
12F\	.	12f\	.	12cc'\	.	12ccc'\	.
12C\J	.	12c\J	.	12ff'\J	.	12fff'\J	.
12AA/L	.	12A\L	.	12aa'\L	.	12aaa'\L	.
12F/	.	12f\	.	12ccc'\	.	12cccc'\	.
12C/J	.	12c\J	.	12ccc'\J	.	12cccc'\J	.
12AA/L	.	12A/L	.	12ccc'\L	.	12cccc'\L	.
12C/	.	12c/	.	12ccc'\	.	12cccc'\	.
12FF/J	.	12F/J	.	12ccc'\J	.	12cccc'\J	.
=332	=332	=332	=332	=332	=332	=332	=332
2r	.	2r	.	1r	.	2cccc\	.
2d\	.	2f#\	.	.	.	2r	.
=333	=333	=333	=333	=333	=333	=333	=333
2r	.	1r	.	2c#/ 2e/	.	2g/ 2b-/	.
2CC/	.	.	.	2r	.	2r	.
=334	=334	=334	=334	=334	=334	=334	=334
2r	.	2r	.	2aa\	.	2ccc\	.
2d\	.	2f#\	.	2r	.	2r	.
=335	=335	=335	=335	=335	=335	=335	=335
2r	.	1r	.	2c#/ 2e/	.	2g/ 2b-/	.
2CC/	.	.	.	2r	.	2r	.
=336	=336	=336	=336	=336	=336	=336	=336
2r	.	2r	.	2aa\	.	2ccc\	.
2d'\	.	2a'\	.	2d'/ 2cc'/	.	2f#'/	.
=337	=337	=337	=337	=337	=337	=337	=337
2G'\	.	2G'\ 2g'\	.	2d'/ 2b-'/	.	2b-'\	.
2D-'\	.	2e'\ 2ee'\	.	2b-'\ 2gg'\	.	2b-'\ 2bb-'\	.
=338	=338	=338	=338	=338	=338	=338	=338
[1CC [1C	.	(1e	.	[1b-	.	(2.cc\	.
.	.	.	.	.	.	4dd\	.
=339	=339	=339	=339	=339	=339	=339	=339
1CC] 1C]	.	2.g\	.	1b-]	.	4ee\	.
.	.	.	.	.	.	4ff\	.
.	.	.	.	.	.	4gg\	.
.	.	4e\)	.	.	.	4aa\)	.
=340	=340	=340	=340	=340	=340	=340	=340
[1FF [1C	.	(4f\	.	(4a/	.	(2.ff\	.
.	.	4g\	.	4b-\	.	.	.
.	.	4a\	.	4cc\	.	.	.
.	.	4b-\)	.	4dd\)	.	8gg\L	.
.	.	.	.	.	.	8ff\J)	.
=341	=341	=341	=341	=341	=341	=341	=341
1FF] 1C]	.	(2.g\	.	2.b-\	.	(8ee\L	.
.	.	.	.	.	.	8ff\)	.
.	.	.	.	.	.	8ee'\	.
.	.	.	.	.	.	8ff'\J	.
.	.	.	.	.	.	(8gg\L	.
.	.	.	.	.	.	8aa\)	.
.	.	4e\)	.	8b-'\L	.	8gg'\	.
.	.	.	.	8cc'\J	.	8aa'\J	.
=342	=342	=342	=342	=342	=342	=342	=342
[1FF [1C	.	(8f\L	.	(8a/L	.	(2.ff\	.
.	.	8g\)	.	8b-/)	.	.	.
.	.	8f'\	.	8a'/	.	.	.
.	.	8g'\J	.	8b-'/J	.	.	.
.	.	(8a\L	.	(8cc\L	.	.	.
.	.	8b-\)	.	8dd\)	.	.	.
.	.	8a'\	.	8cc'\	.	8gg\L	.
.	.	8b-'\J	.	8dd'\J	.	8ff\J)	.
=343	=343	=343	=343	=343	=343	=343	=343
4FF/] 4C/]	.	(8g\L	.	(8b-\L	.	(8ee\L	.
.	.	8a\)	.	8cc\)	.	8ff\)	.
2FF/ 2C/	.	8g'\	.	8b-'\	.	8ee'\	.
.	.	8a'\J	.	8cc'\J	.	8ff'\J	.
.	.	(8b-\L	.	(8dd\L	.	(8gg\L	.
.	.	8cc\)	.	8ee\)	.	8aa\)	.
[4FF/ [4C/	.	8b-'\	.	8dd'\	.	8gg'\	.
.	.	8cc'\J	.	8ee'\J	.	8aa'\J	.
=344	=344	=344	=344	=344	=344	=344	=344
4FF/] 4C/]	.	(8a\L	.	(8cc\L	.	(8ff\L	.
.	.	8cc\)	.	8ee\)	.	8gg\)	.
2FF/ 2C/	.	8a'\	.	8cc'\	.	8ff'\	.
.	.	8cc'\J	.	8ee'\J	.	8gg'\J	.
.	.	8cc\L	.	(8ff\L	.	(8aa\L	.
.	.	8cc\	.	8gg\)	.	8bb-\)	.
[4FF/ [4C/	.	8cc'\	.	8ff'\	.	8aa'\	.
.	.	8cc'\J	.	8gg'\J	.	8bb-'\J	.
=345	=345	=345	=345	=345	=345	=345	=345
4FF/] 4C/]	.	8cc\L	.	(8ee\L	.	(8gg\L	.
.	.	8cc\	.	8ff\)	.	8aa\)	.
2FF/ 2C/	.	8cc'\	.	8ee'\	.	8gg'\	.
.	.	8cc'\J	.	8ff'\J	.	8aa'\J	.
.	.	(8dd\L	.	(8ff\L	.	(8bb-\L	.
.	.	8ee\)	.	8gg\)	.	8ccc\)	.
[4FF/ [4C/	.	8dd'\	.	8ff'\	.	8bb-'\	.
.	.	8ee'\J	.	8gg'\J	.	8ccc'\J	.
=346	=346	=346	=346	=346	=346	=346	=346
8FF\L] 8C\]	.	8ff\L	.	(8ff\L	.	(8aa\L	.
8f'\	.	8a'\	.	8gg\)	.	8bb-\)	.
8f'\	.	8a'\	.	8ff'\	.	8aa'\	.
8e'\J	.	8g'\J	.	8gg'\J	.	8bb-'\J	.
8f'\L	.	8a'\L	.	8aa'\L	.	8ccc'\L	.
8e'\	.	8g'\	.	8bb-'\	.	8ddd'\	.
8f'\	.	8a'\	.	8aa'\	.	8ccc'\	.
8e'\J	.	8g'\J	.	8bb-'\J	.	8ddd'\J	.
=347	=347	=347	=347	=347	=347	=347	=347
8f'\L	.	8a'\L	.	8aa'\L	.	8ccc'\L	.
8f'\	.	8a'\	.	8bb-'\	.	8ddd'\	.
8c'\	.	8f'\	.	8aa'\	.	8ccc'\	.
8A'\J	.	8c'\J	.	8bb-'\J	.	8ddd'\J	.
8F'/L	.	8A'\L	.	8aa'\L	.	8ccc'\L	.
8F'/	.	8a'\	.	8bb-'\	.	8ddd'\	.
8C'/	.	8f'\	.	8aa'\	.	8ccc'\	.
8AA'/J	.	8c'\J	.	8bb-'\J	.	8ddd'\J	.
=348	=348	=348	=348	=348	=348	=348	=348
4FF/	.	(4A/	.	(4aa\	.	(4ccc\	.
4FF/ 4C/	.	4G/	.	4bb-\	.	4ddd\	.
4FF/ 4C/	.	4B-/	.	4gg\	.	4eee\	.
4FF/ 4C/	.	4A/)	.	4aa\)	.	4fff\)	.
=349	=349	=349	=349	=349	=349	=349	=349
2.FF/ 2.C/	.	2.A/	.	2.aa\	.	2.ccc\	.
8FF/L 8C/	.	8E'/L	.	8bb-'\L	.	8ddd'\L	.
8FF/J 8C/	.	8F'/J	.	8aa'\J	.	8ccc'\J	.
=350	=350	=350	=350	=350	=350	=350	=350
2FF/ 2C/	.	(8D/L	.	(8ff\L	.	(8bb-\L	.
.	.	8E/)	.	8gg\)	.	8ccc\)	.
.	.	8F'/	.	8cc'\	.	8aa'\	.
.	.	8E'/J	.	8b-'\J	.	8gg'\J	.
4FF/ 4C/	.	(4F/	.	(4a/	.	4ff\	.
4GG/ 4C/	.	4B-/)	.	4ee\)	.	4ddd\	.
=351	=351	=351	=351	=351	=351	=351	=351
1AA 1C	.	1F	.	1ff	.	1ccc	.
=352	=352	=352	=352	=352	=352	=352	=352
4BBn/	.	(4D/	.	4f/ 4dd/	.	(4ddd\	.
4BB/	.	4G/)	.	4f/ 4dd/	.	4eee\	.
4BB/	.	4G/	.	4f/ 4dd/	.	4fff\	.
4BB/	.	4G/	.	4f/ 4dd/	.	4ggg\)	.
=353	=353	=353	=353	=353	=353	=353	=353
2.BBn/	.	2.G/	.	2.f/ 2.dd/	.	2.fff\	.
4r	.	8F'/L 8G'/	.	8ee'\L	.	8eee'\L	.
.	.	8F'/J 8G'/	.	8dd'\J	.	8ddd'\J	.
=354	=354	=354	=354	=354	=354	=354	=354
8C'/L	.	8E/L 8G/	.	(8cc\L	.	(8ccc\L	.
8C'/	.	8G/	.	8bn\)	.	8ddd\)	.
8C'/	.	8c'/	.	8cc'\	.	8eee'\	.
8C'/J	.	8Bn'/J	.	8dd'\J	.	8fff'\J	.
4C/	.	4B-/	.	(4ee\	.	(4ggg\	.
4C/	.	4A/	.	4ff\)	.	4aaa\)	.
=355	=355	=355	=355	=355	=355	=355	=355
2.C/	.	2.B-/	.	2.ee\	.	2.ggg\	.
*clefC4	*clefG2	*	*	*	*	*	*
8e'\L	.	8g'\L	.	8ee'\L	.	8ggg'\L	.
8f'\J	.	8a'\J	.	8dd'\J	.	8fff'\J	.
=356	=356	=356	=356	=356	=356	=356	=356
(8g\L	.	(8b-\L	.	(8cc\L	.	(8eee\L	.
8f\)	.	8a\)	.	8dd\)	.	8fff\)	.
8e'\	.	8g'\	.	8ee'\	.	8ggg'\	.
8d'\J	.	8f'\J	.	8ff'\J	.	8aaa'\J	.
4c\	.	(4e\	.	(4gg\	.	(4bbb-\	.
4c\	.	4d\)	.	4aa\)	.	4cccc\)	.
=357	=357	=357	=357	=357	=357	=357	=357
*clefF4	*clefF4	*	*	*	*	*	*
[1c	.	[1e	.	2.gg\	.	2.bbb-\	.
.	.	.	.	8ff'\L	.	8aaa'\L	.
.	.	.	.	8ee'\J	.	8ggg'\J	.
=358	=358	=358	=358	=358	=358	=358	=358
1c_	.	1e_	.	(8dd\L	.	(8fff\L	.
.	.	.	.	8cc\)	.	8eee\)	.
.	.	.	.	8b-'\	.	8ddd'\	.
.	.	.	.	8a'\J	.	8ccc'\J	.
.	.	.	.	4g/	.	4bb-'\	.
.	.	.	.	8f'/L	.	8aa'\L	.
.	.	.	.	8e'/J	.	8gg'\J	.
=359	=359	=359	=359	=359	=359	=359	=359
2.c\]	.	2.e\]	.	(8d/L	.	(8ff\L	.
.	.	.	.	8c/)	.	8ee\)	.
.	.	.	.	8B-'/	.	8dd'\	.
.	.	.	.	8A'/J	.	8cc'\J	.
.	.	.	.	4G/	.	4b-\	.
8f'\L	.	8a'\L	.	4r	.	4r	.
8e'\J	.	8g'\J	.	.	.	.	.
=360	=360	=360	=360	=360	=360	=360	=360
(8d\L	.	(8f\L	.	2r	.	2r	.
8c\)	.	8e\)	.	.	.	.	.
8B-'\	.	8d'\	.	.	.	.	.
8A'\J	.	8c'\J	.	.	.	.	.
4G\	.	4B-/	.	4r	.	4r	.
8F'\L	.	8A'/L	.	8c'/L	.	8cc'\L	.
8E'\J	.	8G'/J	.	8d'/J	.	8dd'\J	.
=361	=361	=361	=361	=361	=361	=361	=361
(8D/L	.	(8F/L	.	(8e/L	.	(8ee\L	.
8C/)	.	8E/)	.	8f/)	.	8ff\)	.
8BB-'/	.	8D'/	.	8g'/	.	8gg'\	.
8AA'/J	.	8C'/J	.	8a'/J	.	8aa'\J	.
(4GG/	.	4C/	.	(4b-\	.	(4bb-\	.
4GG#/)	.	4C/	.	4bn\)	.	4bbn\)	.
=362	=362	=362	=362	=362	=362	=362	=362
1AA	.	1F	.	1cc	.	1ccc	.
=363	=363	=363	=363	=363	=363	=363	=363
1BB-	.	1F	.	1dd	.	1ddd	.
=364	=364	=364	=364	=364	=364	=364	=364
[1C	p	(2c\	p	(2.f/	p	(2.a/	p
.	.	4A/	.	.	.	.	.
.	.	4F/)	.	16g/LL	.	16b-/LL	.
.	.	.	.	16f/	.	16a/	.
.	.	.	.	16e/)	.	16g/)	.
.	.	.	.	16f/JJ	.	16a/JJ	.
=365	=365	=365	=365	=365	=365	=365	=365
(2.C/]	.	(4.E/	.	(4.g/	.	(4.b-\	.
.	.	8G/	.	8e/)	.	8g/)	.
.	.	8B-/L	.	(8e/L	.	4cc\	.
.	.	8G/	.	8c/	.	.	.
4BB-/)	.	8E/	.	8g/	.	4cc\	.
.	.	8C/J)	.	8e/J)	.	.	.
=366	=366	=366	=366	=366	=366	=366	=366
1AA	.	1F	.	1a	.	1cc	.
=367	=367	=367	=367	=367	=367	=367	=367
1BBn	.	1A-	.	1f 1dd	.	(2.dd\	.
.	.	.	.	.	.	8ee\L	f
.	.	.	.	.	.	8ff\J)	.
=368	=368	=368	=368	=368	=368	=368	=368
4C/	f	4An/	f	4f/ 4cc/	f	[2ff\	p
4r	.	4r	.	4r	.	.	.
2r	.	2r	.	2r	.	12ff\L]	.
.	.	.	.	.	.	12ff\	.
.	.	.	.	.	.	12dd\J	.
.	.	.	.	.	.	12aa\L	.
.	.	.	.	.	.	12ff\	.
.	.	.	.	.	.	12dd\J	.
=369	=369	=369	=369	=369	=369	=369	=369
2r	.	2r	.	12r	.	4cc\	.
.	.	.	.	12f/L	.	.	.
.	.	.	.	12d/J	.	.	.
.	.	.	.	12a/L	.	4r	.
.	.	.	.	12f/	.	.	.
.	.	.	.	12d/J	.	.	.
12r	.	12r	.	4c/	.	2r	.
12FF/L	.	12F/L	.	.	.	.	.
12DD/J	.	12D/J	.	.	.	.	.
12AA/L	.	12A/L	.	4r	.	.	.
12FF/	.	12F/	.	.	.	.	.
12DD/J	.	12D/J	.	.	.	.	.
=370	=370	=370	=370	=370	=370	=370	=370
4CC/	.	4C/	.	4r	.	2r	.
2G\	.	2B-/	.	2e/	.	.	.
.	.	.	.	.	.	12r	.
.	.	.	.	.	.	12gg\L	.
.	.	.	.	.	.	12ee\J	p
4r	.	4r	.	4r	.	12bb-\L	.
.	.	.	.	.	.	12gg\	.
.	.	.	.	.	.	12ee\J	.
=371	=371	=371	=371	=371	=371	=371	=371
2r	.	2r	.	12r	.	4b-\	.
.	.	.	.	12g/L	.	.	.
.	.	.	.	12e/J	.	.	.
.	.	.	.	12b-/L	.	4r	.
.	.	.	.	12g/	.	.	.
.	.	.	.	12e/J	.	.	.
12r	.	12r	.	4B-/	.	2r	.
12GG/L	.	12G/L	.	.	.	.	.
12EE/J	.	12E/J	.	.	.	.	.
12BB-/L	.	12B-/L	.	4r	.	.	.
12GG/	.	12G/	.	.	.	.	.
12EE/J	.	12E/J	.	.	.	.	.
=372	=372	=372	=372	=372	=372	=372	=372
4CC/	.	4C/	.	4r	.	2r	.
2A\	.	2c\	.	2f/	.	.	.
.	.	.	.	.	.	12r	.
.	.	.	.	.	.	12aa\L	p
.	.	.	.	.	.	12ff\J	.
4r	.	4r	.	4r	.	12ccc\L	.
.	.	.	.	.	.	12aa\	.
.	.	.	.	.	.	12ff\J	.
=373	=373	=373	=373	=373	=373	=373	=373
1r	.	[1C	.	1r	.	12cc\L	.
.	.	.	.	.	.	12ff\	.
.	.	.	.	.	.	12cc\J	.
.	.	.	.	.	.	12aa\L	.
.	.	.	.	.	.	12ff\	.
.	.	.	.	.	.	12cc\J	.
.	.	.	.	.	.	12a\L	.
.	.	.	.	.	.	12cc\	.
.	.	.	.	.	.	12a\J	.
.	.	.	.	.	.	12ff\L	.
.	.	.	.	.	.	12cc\	.
.	.	.	.	.	.	12a\J	.
=374	=374	=374	=374	=374	=374	=374	=374
[1FF	p	(4C/]	.	1r	.	12f/L	.
.	.	.	.	.	.	12a/	.
.	.	.	.	.	.	12f/J	.
.	.	4D/	.	.	.	12cc/L	.
.	.	.	.	.	.	12a/	.
.	.	.	.	.	.	12f/J	.
.	.	4E/	.	.	.	12c/L	.
.	.	.	.	.	.	12f/	.
.	.	.	.	.	.	12c/J	.
.	.	4F/)	.	.	.	12a/L	.
.	.	.	.	.	.	12f/	.
.	.	.	.	.	.	12c/J	.
=375	=375	=375	=375	=375	=375	=375	=375
(4FF/]	p	[1C	.	12a\L	.	4A/	.
.	.	.	.	12cc\	p	.	.
.	.	.	.	12a\J	.	.	.
4GG/	.	.	.	12ff\L	.	4r	.
.	.	.	.	12cc\	.	.	.
.	.	.	.	12a\J	.	.	.
4AA/	.	.	.	12f/L	.	2r	.
.	.	.	.	12a/	.	.	.
.	.	.	.	12f/J	.	.	.
4BB-/)	.	.	.	12cc/L	.	.	.
.	.	.	.	12a/	.	.	.
.	.	.	.	12f/J	.	.	.
=376	=376	=376	=376	=376	=376	=376	=376
[1GG	.	(4C/]	.	4e/	.	12b-\L	.
.	.	.	.	.	.	12ee\	.
.	.	.	.	.	.	12b-\J	.
.	.	4E/	.	4r	.	12gg\L	.
.	.	.	.	.	.	12ee\	.
.	.	.	.	.	.	12b-\J	.
.	.	4F/	.	2r	.	12g/L	.
.	.	.	.	.	.	12b-/	.
.	.	.	.	.	.	12g/J	.
.	.	4G/)	.	.	.	12ee\L	.
.	.	.	.	.	.	12b-\	.
.	.	.	.	.	.	12g\J	.
=377	=377	=377	=377	=377	=377	=377	=377
(4GG/]	.	[1C	.	12e/L	.	4e/	.
.	.	.	.	12g/	.	.	.
.	.	.	.	12e/J	.	.	.
4AA/	.	.	.	12b-/L	.	4r	.
.	.	.	.	12g/	.	.	.
.	.	.	.	12e/J	.	.	.
4BB-/	.	.	.	12B-/L	.	2r	.
.	.	.	.	12e/	.	.	.
.	.	.	.	12B-/J	.	.	.
4C/)	.	.	.	12g/L	.	.	.
.	.	.	.	12e/	.	.	.
.	.	.	.	12B-/J	.	.	.
=378	=378	=378	=378	=378	=378	=378	=378
12F\L	.	4C/]	.	4A/	.	(4cc\	.
12A\	.	.	.	.	.	.	.
12F\J	.	.	.	.	.	.	.
12c\L	.	4r	.	4r	.	4dd\	.
12A\	.	.	.	.	.	.	.
12F\J	.	.	.	.	.	.	.
12C\L	.	2r	.	2r	.	4ee\	.
12F\	.	.	.	.	.	.	.
12C\J	.	.	.	.	.	.	.
12A\L	.	.	.	.	.	4ff\)	.
12F\	.	.	.	.	.	.	.
12C\J	.	.	.	.	.	.	.
=379	=379	=379	=379	=379	=379	=379	=379
4FF/	.	12f\L	.	(4c/	.	[1cc	.
.	.	12a\	.	.	.	.	.
.	.	12f\J	.	.	.	.	.
4r	.	12cc\L	.	4d/	.	.	.
.	.	12a\	.	.	.	.	.
.	.	12f\J	.	.	.	.	.
2r	.	12c\L	.	4e/	.	.	.
.	.	12f\	.	.	.	.	.
.	.	12c\J	.	.	.	.	.
.	.	12a\L	.	4f/)	.	.	.
.	.	12f\	.	.	.	.	.
.	.	12c\J	.	.	.	.	.
=380	=380	=380	=380	=380	=380	=380	=380
12GG/L	.	4B-/	.	[1c	.	(4cc\]	.
12G/	.	.	.	.	.	.	.
12E/J	.	.	.	.	.	.	.
12B-\L	.	4r	.	.	.	4ee\	.
12G\	.	.	.	.	.	.	.
12E\J	.	.	.	.	.	.	.
12BB-/L	.	2r	.	.	.	4ff\	.
12E/	.	.	.	.	.	.	.
12BB-/J	.	.	.	.	.	.	.
12G\L	.	.	.	.	.	4gg\)	.
12E\	.	.	.	.	.	.	.
12BB-\J	.	.	.	.	.	.	.
=381	=381	=381	=381	=381	=381	=381	=381
4GG/	.	12B-\L	.	(4c/]	.	[1cc	.
.	.	12e\	.	.	.	.	.
.	.	12B-\J	.	.	.	.	.
4r	.	12g\L	.	4e/	.	.	.
.	.	12e\	.	.	.	.	.
.	.	12B-\J	.	.	.	.	.
2r	.	12G/L	.	4f/	.	.	.
.	.	12B-/	.	.	.	.	.
.	.	12G/J	.	.	.	.	.
.	.	12e/L	.	4g/)	.	.	.
.	.	12B-/	.	.	.	.	.
.	.	12G/J	.	.	.	.	.
=382	=382	=382	=382	=382	=382	=382	=382
12AA\L	f	12A\L	.	(4c/	.	(4cc\]	.
12c\	.	12cc\	.	.	.	.	.
12A\J	.	12a\J	.	.	.	.	.
12F\L	.	12f\L	.	4f/	.	4ff\	.
12A\	.	12a\	.	.	.	.	.
12F\J	.	12f\J	.	.	.	.	.
12C\L	.	12c\L	.	4g/	f	4gg\	f
12F\	.	12f\	.	.	.	.	.
12C\J	.	12c\J	.	.	.	.	.
12AA/L	.	12A/L	.	4a/)	.	4aa\)	.
12C/	.	12c/	.	.	.	.	.
12AA/J	.	12A/J	.	.	.	.	.
=383	=383	=383	=383	=383	=383	=383	=383
12GG\L	.	12G\L	.	(4c/	.	(4cc\	.
12B-\	.	12b-\	.	.	.	.	.
12G\J	.	12g\J	.	.	.	.	.
12E\L	.	12e\L	.	4g/	.	4gg\	.
12G\	.	12g\	.	.	.	.	.
12E\J	.	12e\J	.	.	.	.	.
12BB-/L	.	12B-\L	.	4a/	.	4aa\	.
12E/	.	12e\	.	.	.	.	.
12BB-/J	.	12B-\J	.	.	.	.	.
12GG/L	.	12G/L	.	4b-\	.	4bb-\	.
12GG/	.	12B-/	.	.	.	.	.
12GG/J	.	12B-/J	.	.	.	.	.
=384	=384	=384	=384	=384	=384	=384	=384
12GG/L	.	12C/L 12c/	.	4cc\	ff	4ccc\	.
12GG/	ff	12C/ 12c/	.	.	.	.	.
12GG/J	ff	12C/J 12c/	.	.	.	.	.
12GG/L	.	12C/L 12c/	.	4dd\	.	4ddd\	ff
12GG/	.	12c/	.	.	.	.	.
12GG/J	.	12C/J 12c/	.	.	.	.	.
12GG/L	.	12C/L 12c/	.	4ee\	.	4eee\	.
12GG/	.	12C/ 12c/	.	.	.	.	.
12GG/J	.	12C/J 12c/	.	.	.	.	.
12GG/L	.	12C/L 12c/	.	4ff\	.	4fff\	.
12GG/	.	12C/ 12c/	.	.	.	.	.
12GG/J	.	12C/J 12c/	.	.	.	.	.
=385	=385	=385	=385	=385	=385	=385	=385
[1GG	.	[1C [1c	.	4gg\	.	4ggg\	.
.	.	.	.	4aa\	.	4aaa\	.
.	.	.	.	4bb-\	.	4bbb-\	.
.	.	.	.	4bbn\)	.	4bbbn\)	.
=386	=386	=386	=386	=386	=386	=386	=386
1GG]	.	1C] 1c]	.	2.ccc\	.	[1cccc	.
.	.	.	.	[4cc\	.	.	.
=387	=387	=387	=387	=387	=387	=387	=387
1FF	.	1C 1A	.	(4cc\]	.	1cccc_	.
.	.	.	.	4dd\	p	.	.
.	.	.	.	4ee\	.	.	.
.	.	.	.	4ff\)	.	.	.
=388	=388	=388	=388	=388	=388	=388	=388
(12GG/L	p	1C 1B-	p	1cc	.	1cccc_	p
12AA/	.	.	.	.	.	.	.
12GG/J	p	.	.	.	.	.	.
12FF/L	.	.	.	.	.	.	.
12EE/	.	.	.	.	.	.	.
12DD/J	.	.	.	.	.	.	.
12CC/L	.	.	.	.	.	.	.
12DD/	.	.	.	.	.	.	.
12EE/J	.	.	.	.	.	.	.
12FF/L	.	.	.	.	.	.	.
12GG/	.	.	.	.	.	.	.
12EE/J)	.	.	.	.	.	.	.
=389	=389	=389	=389	=389	=389	=389	=389
1FF	.	1C 1A	p	(8c/L	p	1cccc_	p
.	.	.	.	8d/)	.	.	.
.	.	.	.	8c'/	.	.	.
.	.	.	.	8d'/J	.	.	.
.	.	.	.	(8e/L	.	.	.
.	.	.	.	8f/)	.	.	.
.	.	.	.	8e'/	.	.	.
.	.	.	.	8f'/J	.	.	.
=390	=390	=390	=390	=390	=390	=390	=390
(12GG/L	.	1C 1B-	.	[1c	.	1cccc_	.
12AA/	.	.	.	.	.	.	.
12GG/J	p	.	.	.	.	.	.
12FF/L	.	.	.	.	.	.	.
12EE/	.	.	.	.	.	.	.
12DD/J	.	.	.	.	.	.	.
12CC/L	.	.	.	.	.	.	.
12DD/	.	.	.	.	.	.	.
12EE/J	.	.	.	.	.	.	.
12FF/L	.	.	.	.	.	.	.
12GG/	.	.	.	.	.	.	.
12EE/J)	.	.	.	.	.	.	.
=391	=391	=391	=391	=391	=391	=391	=391
[1FF	.	[1C [1A	p	(4c/]	p	4cccc\]	p
.	.	.	.	4d/	.	8bbb-'\L	.
.	.	.	.	.	.	8aaa'\J	.
.	.	.	.	4e/	.	(8ggg\L	.
.	.	.	.	.	.	8fff\)	.
.	.	.	.	4f/)	.	8eee'\	.
.	.	.	.	.	.	8ddd'\J	.
=392	=392	=392	=392	=392	=392	=392	=392
1FF_	.	1C_ 1A_	.	(4A/	.	4ccc\	.
.	.	.	.	4B-/	.	8bb-'\L	.
.	.	.	.	.	.	8aa'\J	.
.	.	.	.	4c/	.	(8gg\L	.
.	.	.	.	.	.	8ff\)	.
.	.	.	.	8d/L	.	8ee'\	.
.	.	.	.	8e/J)	.	8dd'\J	.
=393	=393	=393	=393	=393	=393	=393	=393
1FF]	.	1C] 1A]	.	1A 1f	.	4cc\	.
.	.	.	.	.	.	8b-'/L	.
.	.	.	.	.	.	8a'/J	.
.	.	.	.	.	.	(8g/L	.
.	.	.	.	.	.	8f/)	.
.	.	.	.	.	.	8e'/	.
.	.	.	.	.	.	8d'/J	.
=394	=394	=394	=394	=394	=394	=394	=394
2FF'/	.	2C'/ 2A'/	.	2A'/ 2f'/	.	2c'/	.
2FF'/	.	2C'/ 2A'/	.	2A'/ 2f'/	.	2c'/	.
=395	=395	=395	=395	=395	=395	=395	=395
1FF	.	1C 1A	.	1A 1f	.	1c	.
=396	=396	=396	=396	=396	=396	=396	=396
2d'\	pp	2f'\	pp	2a'/	.	2r	.
2d'\	.	2f'\	.	2a'/	pp	2aa'\	.
=397	=397	=397	=397	=397	=397	=397	=397
1d	.	1f	.	1a	.	1aa	pp
=398	=398	=398	=398	=398	=398	=398	=398
1c	.	1g	.	1cc 1ee	.	1ccc	.
=399	=399	=399	=399	=399	=399	=399	=399
4F\	f	4a\	f	4cc\ 4ff\	f	4fff\	f
4r	.	4r	.	4r	.	4r	.
4C'/	ff	4C'/ 4c'/	ff	4c'/ 4e'/	ff	4g'\ 4b-'\ 4ee'\	ff
4r	.	4r	.	4r	.	4r	.
=400	=400	=400	=400	=400	=400	=400	=400
4AA'/	.	4F'/	.	4A'/ 4f'/	.	4f'\ 4a'\ 4ff'\	.
4r	.	4r	.	4r	.	4r	.
2r	.	2r	.	2r	.	2r	.
==	==	==	==	==	==	==	==
*-	*-	*-	*-	*-	*-	*-	*-
!!!ENC: Craig Stuart Sapp
!!!END: 2004/09/09/
!!!RWG: repeat note shorthand not expanded
